;This Gcode has been generated specifically for the LulzBot Mini
;Basic settings: Layer height: 0.38 Walls: 1 Fill: 20
;Filament Diameter: 2.85
;Nozzle Size: 0.5
G21                          ; metric values
G90                          ; absolute positioning
M82                          ; set extruder to absolute mode
M107                         ; start with the fan off
G92 E0                       ; set extruder position to 0
M140 S60; get bed heating up
G28                          ; home all
M109 S140                    ; set to cleaning temp and wait
G1 Z150 E-30 F75             ; suck up XXmm of filament
M109 S140                    ; heat up rest of way
G1 X45 Y174 F11520           ; move behind scraper
G1 Z0  F1200                 ; CRITICAL: set Z to height of top of scraper
G1 X45 Y174 Z-.5 F4000       ; wiping ; plunge into wipe pad
G1 X55 Y172 Z-.5 F4000       ; wiping
G1 X45 Y174 Z0 F4000         ; wiping
G1 X55 Y172 F4000            ; wiping
G1 X45 Y174 F4000            ; wiping
G1 X55 Y172 F4000            ; wiping
G1 X45 Y174 F4000            ; wiping
G1 X55 Y172 F4000            ; wiping
G1 X60 Y174 F4000            ; wiping
G1 X80 Y172 F4000            ; wiping
G1 X60 Y174 F4000            ; wiping
G1 X80 Y172 F4000            ; wiping
G1 X60 Y174 F4000            ; wiping
G1 X90 Y172 F4000            ; wiping
G1 X80 Y174 F4000            ; wiping
G1 X100 Y172 F4000           ; wiping
G1 X80 Y174 F4000            ; wiping
G1 X100 Y172 F4000           ; wiping
G1 X80 Y174 F4000            ; wiping
G1 X100 Y172 F4000           ; wiping
G1 X110 Y174 F4000           ; wiping
G1 X100 Y172 F4000           ; wiping
G1 X110 Y174 F4000           ; wiping
G1 X100 Y172 F4000           ; wiping
G1 X110 Y174 F4000           ; wiping
G1 X115 Y172 Z-0.5 F1000     ; wipe slower and bury noz in cleanish area
G1 Z10                       ; raise z
G28 X0 Y0                    ; home x and y
M109 S140                    ; set to probing temp
M204 S300                    ; Set probing acceleration
G29                          ; Probe
M204 S2000                   ; Restore standard acceleration
G1 X5 Y15 Z10 F5000          ; get out the way
G4 S1                        ; pause
M400                         ; clear buffer
M109 S205    ; set extruder temp and wait
G4 S15                       ; wait for bed to temp up
G1 Z2 E0 F75                 ; extrude filament back into nozzle
M140 S60; get bed temping up during first layer

;Layer count: 28
;LAYER:0
M107
G0 F10500 X34.291 Y75.786 Z0.425
G0 X35.321 Y75.583
;TYPE:SKIRT
G1 F900 X35.676 Y75.341 E0.01789
G1 X36.212 Y74.959 E0.04530
G1 X38.194 Y74.534 E0.12970
G1 X38.794 Y74.250 E0.15734
G1 X39.243 Y74.036 E0.17805
G1 X40.570 Y73.827 E0.23398
G1 X42.778 Y73.671 E0.32615
G1 X44.292 Y73.411 E0.39011
G1 X44.524 Y73.401 E0.39978
G1 X45.007 Y73.125 E0.42294
G1 X45.764 Y72.671 E0.45970
G1 X47.475 Y72.671 E0.53094
G1 X48.149 Y72.772 E0.55932
G1 X49.345 Y73.275 E0.61334
G1 X49.708 Y73.583 E0.63316
G1 X50.682 Y73.813 E0.67483
G1 X53.918 Y74.357 E0.81146
G1 X55.545 Y74.733 E0.88100
G1 X56.716 Y75.055 E0.93156
G1 X57.804 Y74.885 E0.97741
G1 X59.117 Y75.045 E1.03249
G1 X60.909 Y75.642 E1.11114
G1 X61.202 Y75.748 E1.12411
G1 X62.150 Y76.250 E1.16878
G1 X62.439 Y76.602 E1.18774
G1 X63.954 Y76.864 E1.25176
G1 X65.156 Y77.429 E1.30706
G1 X66.348 Y77.661 E1.35762
G1 X67.361 Y77.973 E1.40176
G1 X68.202 Y78.386 E1.44077
G1 X69.759 Y78.911 E1.50919
G1 X70.822 Y79.417 E1.55821
G1 X70.927 Y79.532 E1.56469
G1 X71.289 Y79.661 E1.58069
G1 X71.986 Y80.076 E1.61447
G1 X72.340 Y80.176 E1.62978
G1 X73.478 Y80.834 E1.68452
G1 X73.801 Y81.182 E1.70429
G1 X75.105 Y81.417 E1.75946
G1 X76.593 Y82.305 E1.83161
G1 X78.021 Y83.556 E1.91066
G1 X79.138 Y85.398 E2.00036
G1 X80.399 Y87.177 E2.09115
G1 X81.274 Y88.696 E2.16414
G1 X81.683 Y89.417 E2.19866
G1 X81.723 Y90.192 E2.23097
G1 X81.886 Y90.656 E2.25145
G1 X82.037 Y91.409 E2.28342
G1 X82.694 Y91.679 E2.31300
G1 X83.834 Y93.687 E2.40914
G1 X83.866 Y94.605 E2.44739
G1 X84.022 Y94.852 E2.45956
G1 X84.224 Y95.244 E2.47792
G1 X84.533 Y96.182 E2.51904
G1 X85.209 Y98.657 E2.62587
G1 X85.411 Y100.516 E2.70373
G1 X85.473 Y102.004 E2.76574
G1 X85.697 Y102.509 E2.78874
G1 X85.821 Y103.871 E2.84569
G1 X86.104 Y104.585 E2.87767
G1 X86.134 Y106.516 E2.95808
G1 X86.460 Y107.346 E2.99521
G1 X86.965 Y108.337 E3.04152
G1 X87.071 Y109.367 E3.08463
G1 X87.226 Y109.633 E3.09745
G1 X87.412 Y111.547 E3.17752
G1 X87.505 Y111.934 E3.19410
G1 X87.505 Y115.761 E3.35344
G1 X86.971 Y116.202 E3.38228
G1 X86.313 Y118.071 E3.46478
G1 X85.902 Y119.899 E3.54280
G1 X85.302 Y122.272 E3.64472
G1 X85.009 Y123.134 E3.68262
G1 X84.968 Y123.216 E3.68644
G1 X85.091 Y123.785 E3.71068
G1 X85.459 Y126.210 E3.81281
G1 X85.650 Y128.343 E3.90198
G1 X85.660 Y131.088 E4.01627
G1 X85.663 Y131.317 E4.02581
G1 X85.479 Y133.459 E4.11533
G1 X85.111 Y135.761 E4.21240
G1 X84.666 Y137.594 E4.29093
G1 X84.124 Y139.296 E4.36531
G1 X83.417 Y141.098 E4.44591
G1 X82.590 Y142.810 E4.52507
G1 X81.839 Y144.080 E4.58651
G1 X80.956 Y145.288 E4.64881
G1 X79.875 Y146.460 E4.71520
G1 X78.810 Y147.355 E4.77312
G1 X78.411 Y147.693 E4.79490
G1 X77.997 Y147.866 E4.81358
G1 X77.048 Y148.312 E4.85724
G1 X75.420 Y148.541 E4.92569
G1 X75.015 Y148.603 E4.94275
G1 X72.278 Y148.319 E5.05733
G1 X71.862 Y148.270 E5.07477
G1 X71.311 Y148.085 E5.09897
G1 X70.113 Y147.877 E5.14960
G1 X66.127 Y146.058 E5.33203
G1 X63.895 Y144.837 E5.43797
G1 X63.204 Y144.393 E5.47217
G1 X62.974 Y144.844 E5.49325
G1 X62.672 Y145.278 E5.51526
G1 X61.550 Y146.506 E5.58452
G1 X59.694 Y147.702 E5.67646
G1 X57.624 Y148.343 E5.76669
G1 X55.469 Y148.370 E5.85642
G1 X53.350 Y147.834 E5.94743
G1 X51.891 Y147.046 E6.01648
G1 X50.682 Y146.035 E6.08210
G1 X50.216 Y145.446 E6.11337
G1 X49.370 Y145.960 E6.15459
G1 X46.457 Y147.335 E6.28871
G1 X43.332 Y148.449 E6.42685
G1 X41.335 Y148.995 E6.51305
G1 X39.584 Y149.351 E6.58745
G1 X39.356 Y149.795 E6.60824
G1 X36.205 Y149.795 E6.73944
G1 X34.352 Y149.143 E6.82123
G1 X33.820 Y148.883 E6.84588
G1 X32.544 Y147.878 E6.91351
G1 X31.673 Y146.770 E6.97220
G1 X30.271 Y144.418 E7.08621
G1 X30.157 Y144.229 E7.09540
G1 X28.959 Y141.635 E7.21437
G1 X27.519 Y137.475 E7.39767
G1 X27.359 Y137.190 E7.41128
G1 X27.152 Y136.921 E7.42541
G1 X26.869 Y136.654 E7.44161
G1 X26.577 Y136.451 E7.45642
G1 X25.616 Y135.988 E7.50083
G1 X23.782 Y135.217 E7.58367
G1 X22.656 Y134.509 E7.63905
G1 X21.811 Y133.633 E7.68973
G1 X21.375 Y133.196 E7.71544
G1 X21.335 Y133.107 E7.71950
G1 X21.011 Y133.011 E7.73357
G1 X19.821 Y131.789 E7.80459
G1 X19.163 Y130.563 E7.86253
G1 X19.138 Y130.529 E7.86428
G1 X18.355 Y129.864 E7.90706
G1 X18.058 Y129.615 E7.92320
G1 X17.262 Y128.585 E7.97740
G1 X16.490 Y126.772 E8.05945
G1 X16.045 Y123.993 E8.17663
G1 X15.989 Y123.667 E8.19040
G1 X16.008 Y122.583 E8.23555
G1 X15.665 Y122.195 E8.25711
G1 X14.889 Y121.037 E8.31515
G1 X14.563 Y119.871 E8.36556
G1 X14.368 Y119.141 E8.39702
G1 X14.595 Y117.797 E8.45378
G1 X14.223 Y116.392 E8.51430
G1 X14.210 Y115.263 E8.56131
G1 X14.250 Y114.808 E8.58033
G1 X14.349 Y114.422 E8.59692
G1 X14.257 Y113.722 E8.62632
G1 X14.212 Y112.653 E8.67087
G1 X14.176 Y112.496 E8.67757
G1 X13.728 Y111.792 E8.71232
G1 X13.447 Y110.487 E8.76790
G1 X13.493 Y109.742 E8.79898
G1 X13.482 Y109.704 E8.80063
G1 X12.893 Y109.352 E8.82920
G1 X12.925 Y106.002 E8.96869
G1 X13.295 Y105.585 E8.99190
G1 X13.129 Y104.415 E9.04111
G1 X13.470 Y102.999 E9.10175
G1 X13.444 Y102.869 E9.10727
G1 X13.360 Y102.504 E9.12287
G1 X13.394 Y101.446 E9.16694
G1 X13.989 Y97.961 E9.31415
G1 X14.789 Y95.269 E9.43109
G1 X15.115 Y95.277 E9.44467
G1 X15.286 Y94.877 E9.46278
G1 X15.931 Y93.978 E9.50885
G1 X17.380 Y92.693 E9.58949
G1 X17.518 Y92.346 E9.60504
G1 X17.692 Y91.929 E9.62385
G1 X18.450 Y90.897 E9.67717
G1 X18.540 Y90.813 E9.68229
G1 X18.689 Y90.344 E9.70278
G1 X19.504 Y88.733 E9.77796
G1 X21.141 Y86.950 E9.87874
G1 X21.712 Y86.688 E9.90490
G1 X22.058 Y86.382 E9.92413
G1 X23.446 Y85.658 E9.98932
G1 X23.651 Y85.461 E10.00116
G1 X23.753 Y85.172 E10.01392
G1 X23.759 Y85.163 E10.01437
G1 X23.378 Y84.635 E10.04148
G1 X25.505 Y82.000 E10.18248
G1 X26.316 Y81.306 E10.22692
G1 X27.073 Y80.842 E10.26389
G1 X28.259 Y79.609 E10.33513
G1 X29.277 Y78.979 E10.38498
G1 X30.983 Y77.607 E10.47613
G1 X31.640 Y77.357 E10.50540
G1 X32.030 Y77.061 E10.52579
G1 X32.358 Y76.798 E10.54329
G1 X32.847 Y76.585 E10.56550
G1 X33.045 Y76.405 E10.57664
G1 X34.291 Y75.786 E10.63457
G1 X35.321 Y75.583 E10.67829
G1 F600 E9.17829
G1 Z0.525
G0 F10500 X36.994 Y79.583
;TYPE:WALL-INNER
G1 Z0.425
G1 F600 E10.67829
G1 F900 X37.956 Y78.930 E10.72670
G1 X39.569 Y78.584 E10.79539
G1 X40.510 Y78.138 E10.83875
G1 X41.052 Y78.053 E10.86159
G1 X43.283 Y77.895 E10.95472
G1 X44.743 Y77.645 E11.01639
G1 X46.361 Y77.575 E11.08383
G1 X46.842 Y76.971 E11.11598
G1 X46.854 Y76.964 E11.11656
G1 X46.868 Y77.227 E11.12752
G1 X47.948 Y77.757 E11.17761
G1 X48.354 Y77.809 E11.19466
G1 X48.958 Y77.772 E11.21985
G1 X49.839 Y77.980 E11.25754
G1 X53.083 Y78.525 E11.39451
G1 X54.495 Y78.852 E11.45486
G1 X57.160 Y79.583 E11.56992
G1 X57.774 Y79.190 E11.60028
G1 X57.877 Y79.174 E11.60462
G1 X58.178 Y79.210 E11.61724
G1 X59.183 Y79.546 E11.66136
G1 X59.148 Y79.748 E11.66990
G1 X59.706 Y80.216 E11.70022
G1 X61.312 Y81.033 E11.77525
G1 X61.544 Y81.156 E11.78618
G1 X62.325 Y81.145 E11.81871
G1 X62.651 Y80.951 E11.83450
G1 X62.667 Y80.953 E11.83517
G1 X63.826 Y81.497 E11.88848
G1 X65.314 Y81.789 E11.95162
G1 X65.791 Y81.936 E11.97240
G1 X66.578 Y82.322 E12.00890
G1 X68.160 Y82.856 E12.07843
G1 X68.242 Y82.895 E12.08221
G1 X68.501 Y83.179 E12.09821
G1 X69.476 Y83.526 E12.14130
G1 X70.158 Y83.932 E12.17435
G1 X70.286 Y84.010 E12.18059
G1 X70.670 Y84.119 E12.19721
G1 X70.799 Y84.194 E12.20343
G1 X71.712 Y85.176 E12.25926
G1 X73.553 Y85.877 E12.34128
G1 X73.790 Y85.581 E12.35707
G1 X74.083 Y85.755 E12.37126
G1 X74.729 Y86.321 E12.40702
G1 X75.587 Y87.737 E12.47596
G1 X76.814 Y89.468 E12.56430
G1 X77.491 Y90.641 E12.62070
G1 X77.510 Y91.020 E12.63650
G1 X77.614 Y91.316 E12.64956
G1 X76.812 Y91.579 E12.68470
G1 X77.260 Y93.348 E12.76069
G1 X77.896 Y94.487 E12.81500
G1 X78.635 Y94.245 E12.84738
G1 X78.950 Y94.734 E12.87160
G1 X79.630 Y95.014 E12.90222
G1 X79.660 Y95.901 E12.93918
G1 X80.301 Y96.918 E12.98923
G1 X80.464 Y97.412 E13.01089
G1 X81.021 Y99.448 E13.09878
G1 X81.172 Y100.844 E13.15725
G1 X81.261 Y102.988 E13.24660
G1 X81.529 Y103.593 E13.27415
G1 X81.631 Y104.711 E13.32089
G1 X81.648 Y104.874 E13.32772
G1 X81.868 Y105.427 E13.35250
G1 X81.894 Y107.143 E13.42396
G1 X81.899 Y107.355 E13.43279
G1 X82.579 Y109.089 E13.51034
G1 X82.804 Y109.531 E13.53099
G1 X82.769 Y109.619 E13.53493
G1 X82.790 Y110.387 E13.56692
G1 X83.085 Y110.949 E13.59335
G1 X83.213 Y112.257 E13.64808
G1 X83.256 Y112.436 E13.65574
G1 X83.256 Y113.960 E13.71920
G1 X82.270 Y116.761 E13.84284
G1 X82.226 Y116.880 E13.84812
G1 X81.767 Y118.921 E13.93523
G1 X81.224 Y121.066 E14.02736
G1 X81.081 Y121.486 E14.04583
G1 X80.762 Y122.123 E14.07550
G1 X80.686 Y122.275 E14.08257
G1 X80.578 Y123.021 E14.11396
G1 X80.912 Y124.563 E14.17965
G1 X81.238 Y126.715 E14.27028
G1 X81.402 Y128.538 E14.34649
G1 X81.411 Y131.154 E14.45542
G1 X81.411 Y131.167 E14.45596
G1 X81.258 Y132.949 E14.53043
G1 X80.943 Y134.915 E14.61334
G1 X80.572 Y136.448 E14.67901
G1 X80.114 Y137.884 E14.74177
G1 X79.525 Y139.386 E14.80895
G1 X78.841 Y140.801 E14.87439
G1 X78.286 Y141.739 E14.91977
G1 X77.666 Y142.588 E14.96354
G1 X76.939 Y143.376 E15.00818
G1 X76.151 Y144.038 E15.05103
G1 X75.820 Y144.194 E15.06627
G1 X74.915 Y144.321 E15.10432
G1 X72.795 Y144.101 E15.19307
G1 X72.363 Y143.955 E15.21205
G1 X71.378 Y143.784 E15.25368
G1 X68.037 Y142.260 E15.40658
G1 X66.065 Y141.181 E15.50018
G1 X64.126 Y139.934 E15.59617
G1 X61.794 Y138.148 E15.71848
G1 X61.093 Y137.850 E15.75019
G1 X60.926 Y137.779 E15.75775
G1 X60.171 Y137.743 E15.78922
G1 X58.747 Y138.104 E15.85039
G1 X59.618 Y139.567 E15.92128
G1 X59.851 Y140.333 E15.95462
G1 X59.880 Y141.128 E15.98775
G1 X59.696 Y141.923 E16.02172
G1 X59.331 Y142.636 E16.05508
G1 X58.789 Y143.229 E16.08853
G1 X57.879 Y143.816 E16.13362
G1 X56.955 Y144.102 E16.17389
G1 X55.970 Y144.114 E16.21491
G1 X54.906 Y143.845 E16.26060
G1 X54.287 Y143.511 E16.28989
G1 X53.740 Y143.054 E16.31957
G1 X53.310 Y142.510 E16.34844
G1 X52.998 Y141.872 E16.37801
G1 X52.845 Y141.217 E16.40602
G1 X52.837 Y140.527 E16.43475
G1 X52.956 Y139.792 E16.46575
G1 X51.875 Y139.137 E16.51838
G1 X49.524 Y140.894 E16.64059
G1 X47.348 Y142.216 E16.74661
G1 X44.840 Y143.400 E16.86209
G1 X42.052 Y144.394 E16.98533
G1 X40.344 Y144.861 E17.05906
G1 X37.314 Y145.475 E17.18778
G1 X37.070 Y145.546 E17.19837
G1 X36.931 Y145.546 E17.20415
G1 X36.061 Y145.240 E17.24255
G1 X35.572 Y144.854 E17.26849
G1 X35.183 Y144.359 E17.29471
G1 X33.919 Y142.240 E17.39744
G1 X32.903 Y140.040 E17.49834
G1 X31.465 Y135.885 E17.68142
G1 X31.394 Y135.700 E17.68967
G1 X30.917 Y134.846 E17.73040
G1 X30.312 Y134.062 E17.77163
G1 X29.556 Y133.348 E17.81493
G1 X28.726 Y132.770 E17.85704
G1 X27.368 Y132.116 E17.91980
G1 X25.748 Y131.434 E17.99299
G1 X25.356 Y131.188 E18.01226
G1 X24.943 Y130.760 E18.03702
G1 X24.709 Y130.229 E18.06119
G1 X24.632 Y129.868 E18.07656
G1 X24.053 Y129.293 E18.11053
G1 X23.307 Y129.257 E18.14163
G1 X23.280 Y129.249 E18.14280
G1 X22.762 Y128.285 E18.18837
G1 X22.333 Y127.705 E18.21841
G1 X22.260 Y127.607 E18.22350
G1 X21.139 Y126.653 E18.28479
G1 X20.957 Y126.419 E18.29713
G1 X20.603 Y125.586 E18.33482
G1 X20.244 Y123.344 E18.42936
G1 X20.275 Y121.555 E18.50386
G1 X20.281 Y121.304 E18.51431
G1 X20.012 Y120.696 E18.54200
G1 X19.036 Y119.593 E18.60332
G1 X18.797 Y119.236 E18.62121
G1 X18.713 Y118.933 E18.63430
G1 X18.773 Y118.580 E18.64921
G1 X19.230 Y117.769 E18.68797
G1 X18.651 Y116.512 E18.74560
G1 X18.466 Y115.815 E18.77562
G1 X18.462 Y115.487 E18.78928
G1 X18.589 Y114.990 E18.81064
G1 X18.626 Y114.361 E18.83688
G1 X18.494 Y113.356 E18.87908
G1 X18.441 Y112.095 E18.93163
G1 X18.185 Y110.952 E18.98040
G1 X18.112 Y110.764 E18.98880
G1 X17.724 Y110.156 E19.01883
G1 X17.764 Y109.497 E19.04632
G1 X17.785 Y109.297 E19.05470
G1 X17.569 Y108.542 E19.08739
G1 X17.367 Y107.560 E19.12914
G1 X17.278 Y107.379 E19.13754
G1 X17.657 Y106.705 E19.16973
G1 X17.781 Y106.488 E19.18014
G1 X17.806 Y105.967 E19.20186
G1 X17.509 Y105.034 E19.24263
G1 X17.450 Y104.619 E19.26008
G1 X17.745 Y103.392 E19.31263
G1 X17.736 Y102.669 E19.34273
G1 X17.624 Y102.105 E19.36668
G1 X17.632 Y101.874 E19.37630
G1 X17.961 Y99.947 E19.45770
G1 X18.180 Y99.934 E19.46683
G1 X18.711 Y97.677 E19.56337
G1 X19.012 Y96.972 E19.59529
G1 X19.105 Y96.842 E19.60195
G1 X20.744 Y95.390 E19.69312
G1 X20.954 Y95.207 E19.70472
G1 X21.422 Y94.029 E19.75750
G1 X21.637 Y93.736 E19.77263
G1 X21.977 Y93.418 E19.79201
G1 X22.350 Y92.855 E19.82013
G1 X22.636 Y91.956 E19.85942
G1 X23.030 Y91.175 E19.89584
G1 X23.691 Y90.456 E19.93651
G1 X24.056 Y90.288 E19.95324
G1 X24.485 Y89.908 E19.97710
G1 X25.804 Y89.220 E20.03904
G1 X25.955 Y89.140 E20.04616
G1 X27.072 Y88.066 E20.11068
G1 X27.459 Y87.439 E20.14136
G1 X27.610 Y87.014 E20.16014
G1 X28.044 Y86.311 E20.19454
G1 X28.553 Y85.839 E20.22344
G1 X28.743 Y84.821 E20.26656
G1 X28.822 Y84.753 E20.27090
G1 X29.758 Y84.179 E20.31662
G1 X30.949 Y82.941 E20.38815
G1 X31.737 Y82.453 E20.42674
G1 X33.121 Y81.340 E20.50069
G1 X33.263 Y81.286 E20.50702
G1 X33.536 Y81.252 E20.51847
G1 X34.564 Y80.472 E20.57220
G1 X35.041 Y80.264 E20.59387
G1 X35.194 Y80.193 E20.60089
G1 X35.466 Y79.947 E20.61616
G1 X35.674 Y79.843 E20.62584
G1 X36.994 Y79.583 E20.68186
G0 F10500 X53.838 Y138.720
G1 F900 X53.229 Y139.629 E20.72742
G1 X53.002 Y140.798 E20.77700
G1 X53.081 Y141.522 E20.80733
G1 X53.297 Y142.172 E20.83585
G1 X53.893 Y142.987 E20.87789
G1 X54.021 Y143.162 E20.88692
G1 X55.096 Y143.835 E20.93973
G1 X56.361 Y144.077 E20.99335
G1 X57.544 Y143.861 E21.04343
G1 X58.610 Y143.243 E21.09473
G1 X59.255 Y142.420 E21.13827
G1 X59.374 Y142.270 E21.14624
G1 X59.623 Y141.575 E21.17698
G1 X59.714 Y140.816 E21.20881
G1 X59.512 Y139.798 E21.25203
G1 X59.461 Y139.571 E21.26171
G1 X58.866 Y138.717 E21.30505
G1 X58.738 Y138.534 E21.31435
G1 X58.321 Y138.269 E21.33492
G1 X57.952 Y138.226 E21.35039
G1 X56.527 Y138.457 E21.41050
G1 X55.177 Y138.551 E21.46685
G1 X53.838 Y138.720 E21.52304
G0 F10500 X54.199 Y139.304
;TYPE:WALL-OUTER
G1 F900 X53.819 Y139.872 E21.55150
G1 X53.634 Y140.824 E21.59188
G1 X53.695 Y141.388 E21.61550
G1 X53.859 Y141.882 E21.63717
G1 X54.455 Y142.696 E21.67918
G1 X55.329 Y143.243 E21.72211
G1 X56.364 Y143.441 E21.76599
G1 X57.324 Y143.266 E21.80662
G1 X58.192 Y142.763 E21.84839
G1 X58.765 Y142.032 E21.88706
G1 X58.820 Y141.963 E21.89074
G1 X59.011 Y141.431 E21.91427
G1 X59.082 Y140.840 E21.93906
G1 X58.900 Y139.927 E21.97782
G1 X58.878 Y139.827 E21.98209
G1 X58.297 Y138.994 E22.02437
G1 X58.107 Y138.873 E22.03375
G1 X57.967 Y138.857 E22.03962
G1 X56.594 Y139.079 E22.09753
G1 X55.238 Y139.173 E22.15413
G1 X54.199 Y139.304 E22.19773
G0 F10500 X54.148 Y138.895
G0 X52.486 Y139.757
G0 X52.272 Y140.108
G1 F900 X51.912 Y139.890 E22.21526
G1 X49.875 Y141.412 E22.32113
G1 X47.647 Y142.766 E22.42969
G1 X45.075 Y143.980 E22.54811
G1 X42.242 Y144.990 E22.67335
G1 X40.499 Y145.466 E22.74858
G1 X37.463 Y146.083 E22.87757
G1 X37.160 Y146.171 E22.89071
G1 X36.824 Y146.171 E22.90470
G1 X35.756 Y145.795 E22.95185
G1 X35.126 Y145.299 E22.98523
G1 X34.668 Y144.716 E23.01610
G1 X33.384 Y142.561 E23.12055
G1 X32.326 Y140.282 E23.22517
G1 X30.877 Y136.099 E23.40950
G1 X30.827 Y135.965 E23.41545
G1 X30.394 Y135.192 E23.45235
G1 X29.847 Y134.482 E23.48966
G1 X29.161 Y133.834 E23.52896
G1 X28.410 Y133.312 E23.56704
G1 X27.111 Y132.685 E23.62710
G1 X25.457 Y131.990 E23.70180
G1 X24.961 Y131.678 E23.72620
G1 X24.416 Y131.113 E23.75888
G1 X24.111 Y130.420 E23.79041
G1 X24.060 Y130.180 E23.80063
G1 X23.784 Y129.906 E23.81682
G1 X23.199 Y129.878 E23.84121
G1 X22.947 Y129.804 E23.85214
G1 X22.773 Y129.625 E23.86254
G1 X22.233 Y128.621 E23.91000
G1 X21.832 Y128.079 E23.93808
G1 X21.802 Y128.038 E23.94019
G1 X20.689 Y127.092 E24.00101
G1 X20.413 Y126.736 E24.01977
G1 X19.998 Y125.761 E24.06389
G1 X19.623 Y123.418 E24.16269
G1 X19.619 Y123.391 E24.16383
G1 X19.650 Y121.540 E24.24091
G1 X19.653 Y121.429 E24.24553
G1 X19.480 Y121.038 E24.26334
G1 X18.539 Y119.974 E24.32248
G1 X18.222 Y119.501 E24.34619
G1 X18.073 Y118.968 E24.36923
G1 X18.174 Y118.372 E24.39440
G1 X18.442 Y117.879 E24.41777
G1 X18.526 Y117.735 E24.42471
G1 X18.061 Y116.726 E24.47097
G1 X17.842 Y115.899 E24.50659
G1 X17.836 Y115.411 E24.52691
G1 X17.969 Y114.894 E24.54914
G1 X17.998 Y114.384 E24.57041
G1 X17.872 Y113.418 E24.61097
G1 X17.819 Y112.177 E24.66269
G1 X17.585 Y111.135 E24.70716
G1 X17.552 Y111.048 E24.71103
G1 X17.134 Y110.393 E24.74338
G1 X17.095 Y110.210 E24.75117
G1 X17.142 Y109.432 E24.78363
G1 X17.151 Y109.352 E24.78698
G1 X16.963 Y108.698 E24.81531
G1 X16.771 Y107.765 E24.85498
G1 X16.569 Y107.356 E24.87397
G1 X16.583 Y107.340 E24.87486
G1 X17.115 Y106.395 E24.92001
G1 X17.164 Y106.309 E24.92413
G1 X17.176 Y106.050 E24.93493
G1 X16.898 Y105.176 E24.97312
G1 X16.814 Y104.589 E24.99781
G1 X17.119 Y103.322 E25.05207
G1 X17.112 Y102.735 E25.07651
G1 X16.997 Y102.154 E25.10117
G1 X17.008 Y101.813 E25.11538
G1 X17.428 Y99.352 E25.21933
G1 X17.678 Y99.337 E25.22976
G1 X18.116 Y97.478 E25.30928
G1 X18.463 Y96.665 E25.34609
G1 X18.638 Y96.421 E25.35859
G1 X20.333 Y94.919 E25.45289
G1 X20.429 Y94.835 E25.45820
G1 X20.870 Y93.723 E25.50801
G1 X21.168 Y93.318 E25.52895
G1 X21.497 Y93.012 E25.54766
G1 X21.780 Y92.583 E25.56906
G1 X22.055 Y91.719 E25.60681
G1 X22.511 Y90.816 E25.64893
G1 X23.316 Y89.940 E25.69847
G1 X23.711 Y89.758 E25.71658
G1 X24.128 Y89.390 E25.73973
G1 X25.513 Y88.667 E25.80479
G1 X25.585 Y88.629 E25.80818
G1 X26.582 Y87.670 E25.86578
G1 X26.892 Y87.167 E25.89038
G1 X27.041 Y86.744 E25.90905
G1 X27.523 Y85.964 E25.94723
G1 X27.557 Y85.912 E25.94982
G1 X27.898 Y85.586 E25.96946
G1 X27.978 Y85.514 E25.97394
G1 X28.081 Y84.961 E25.99736
G1 X27.935 Y84.759 E26.00774
G1 X28.115 Y84.536 E26.01967
G1 X28.456 Y84.245 E26.03834
G1 X29.363 Y83.688 E26.08266
G1 X30.554 Y82.450 E26.15419
G1 X31.376 Y81.942 E26.19442
G1 X32.808 Y80.791 E26.27092
G1 X33.110 Y80.675 E26.28439
G1 X33.292 Y80.652 E26.29203
G1 X34.245 Y79.929 E26.34184
G1 X34.786 Y79.694 E26.36640
G1 X34.845 Y79.666 E26.36912
G1 X35.111 Y79.425 E26.38406
G1 X35.469 Y79.247 E26.40071
G1 X36.748 Y78.995 E26.45499
G1 X37.704 Y78.345 E26.50312
G1 X39.367 Y77.988 E26.57395
G1 X40.327 Y77.534 E26.61816
G1 X40.980 Y77.431 E26.64569
G1 X43.208 Y77.274 E26.73869
G1 X44.680 Y77.022 E26.80087
G1 X46.049 Y76.963 E26.85793
G1 X46.427 Y76.488 E26.88320
G1 X46.764 Y76.295 E26.89937
G1 X47.177 Y76.295 E26.91657
G1 X47.428 Y76.401 E26.92791
G1 X47.451 Y76.420 E26.92916
G1 X47.473 Y76.827 E26.94613
G1 X48.130 Y77.150 E26.97661
G1 X48.375 Y77.181 E26.98689
G1 X49.011 Y77.142 E27.01342
G1 X49.963 Y77.367 E27.05416
G1 X53.214 Y77.914 E27.19142
G1 X54.650 Y78.246 E27.25279
G1 X57.057 Y78.907 E27.35673
G1 X57.550 Y78.592 E27.38109
G1 X57.863 Y78.543 E27.39428
G1 X58.318 Y78.598 E27.41336
G1 X59.723 Y79.067 E27.47504
G1 X59.810 Y79.112 E27.47911
G1 X59.879 Y79.196 E27.48364
G1 X59.826 Y79.500 E27.49649
G1 X60.053 Y79.691 E27.50884
G1 X61.591 Y80.474 E27.58070
G1 X61.696 Y80.529 E27.58564
G1 X62.149 Y80.523 E27.60450
G1 X62.404 Y80.371 E27.61686
G1 X62.418 Y80.276 E27.62086
G1 X62.856 Y80.352 E27.63937
G1 X64.021 Y80.899 E27.69296
G1 X65.465 Y81.181 E27.75422
G1 X66.019 Y81.351 E27.77835
G1 X66.817 Y81.743 E27.81537
G1 X68.397 Y82.277 E27.88481
G1 X68.622 Y82.384 E27.89519
G1 X68.858 Y82.643 E27.90978
G1 X69.741 Y82.957 E27.94880
G1 X70.484 Y83.399 E27.98480
G1 X70.539 Y83.433 E27.98749
G1 X70.917 Y83.539 E28.00383
G1 X71.195 Y83.700 E28.01721
G1 X72.071 Y84.644 E28.07083
G1 X73.350 Y85.131 E28.12782
G1 X73.551 Y84.880 E28.14121
G1 X73.632 Y84.834 E28.14509
G1 X73.813 Y84.867 E28.15275
G1 X74.452 Y85.247 E28.18370
G1 X75.212 Y85.914 E28.22581
G1 X76.110 Y87.394 E28.29789
G1 X77.346 Y89.137 E28.38686
G1 X78.107 Y90.458 E28.45033
G1 X78.130 Y90.898 E28.46868
G1 X78.383 Y91.618 E28.50046
G1 X78.626 Y92.826 E28.55176
G1 X78.896 Y93.496 E28.58184
G1 X79.369 Y94.230 E28.61820
G1 X80.161 Y94.556 E28.65386
G1 X80.244 Y94.703 E28.66089
G1 X80.279 Y95.710 E28.70284
G1 X80.872 Y96.651 E28.74916
G1 X81.060 Y97.220 E28.77411
G1 X81.638 Y99.334 E28.86536
G1 X81.794 Y100.777 E28.92580
G1 X81.881 Y102.843 E29.01190
G1 X82.142 Y103.431 E29.03868
G1 X82.253 Y104.650 E29.08965
G1 X82.261 Y104.724 E29.09275
G1 X82.491 Y105.304 E29.11873
G1 X82.519 Y107.131 E29.19481
G1 X82.521 Y107.230 E29.19893
G1 X83.150 Y108.832 E29.27059
G1 X83.430 Y109.382 E29.29629
G1 X83.452 Y109.594 E29.30517
G1 X83.397 Y109.731 E29.31131
G1 X83.411 Y110.225 E29.33189
G1 X83.695 Y110.767 E29.35737
G1 X83.831 Y112.153 E29.41536
G1 X83.881 Y112.361 E29.42426
G1 X83.881 Y114.068 E29.49534
G1 X82.857 Y116.975 E29.62367
G1 X82.827 Y117.057 E29.62731
G1 X82.378 Y119.053 E29.71249
G1 X81.824 Y121.243 E29.80655
G1 X81.660 Y121.728 E29.82787
G1 X81.290 Y122.464 E29.86217
G1 X81.213 Y122.999 E29.88468
G1 X81.527 Y124.450 E29.94649
G1 X81.858 Y126.635 E30.03851
G1 X82.027 Y128.515 E30.11710
G1 X82.036 Y131.147 E30.22669
G1 X82.037 Y131.191 E30.22853
G1 X81.880 Y133.021 E30.30500
G1 X81.555 Y135.046 E30.39040
G1 X81.174 Y136.617 E30.45771
G1 X80.706 Y138.086 E30.52190
G1 X80.099 Y139.635 E30.59118
G1 X79.394 Y141.093 E30.65861
G1 X78.806 Y142.088 E30.70673
G1 X78.153 Y142.982 E30.75283
G1 X77.369 Y143.832 E30.80098
G1 X76.492 Y144.569 E30.84868
G1 X76.002 Y144.800 E30.87123
G1 X74.923 Y144.951 E30.91660
G1 X72.679 Y144.717 E31.01054
G1 X72.662 Y144.715 E31.01125
G1 X72.209 Y144.563 E31.03115
G1 X71.196 Y144.387 E31.07396
G1 X67.751 Y142.816 E31.23161
G1 X65.737 Y141.714 E31.32721
G1 X63.770 Y140.449 E31.42458
G1 X61.477 Y138.692 E31.54486
G1 X60.784 Y138.398 E31.57621
G1 X60.234 Y138.372 E31.59913
G1 X59.713 Y138.504 E31.62151
G1 X60.195 Y139.313 E31.66072
G1 X60.472 Y140.227 E31.70049
G1 X60.507 Y141.192 E31.74070
G1 X60.288 Y142.135 E31.78101
G1 X59.857 Y142.979 E31.82047
G1 X59.191 Y143.715 E31.86180
G1 X58.148 Y144.387 E31.91346
G1 X57.053 Y144.726 E31.96119
G1 X55.896 Y144.740 E32.00937
G1 X54.678 Y144.432 E32.06168
G1 X53.932 Y144.030 E32.09696
G1 X53.292 Y143.494 E32.13172
G1 X52.777 Y142.845 E32.16622
G1 X52.406 Y142.086 E32.20139
G1 X52.221 Y141.295 E32.23522
G1 X52.211 Y140.481 E32.26912
G1 X52.272 Y140.108 E32.28485
G0 F10500 X52.486 Y139.757
G0 X77.831 Y93.934
G0 X78.191 Y93.733
G1 F900 X78.679 Y93.572 E32.30625
G1 X78.613 Y93.036 E32.32874
G1 X78.114 Y91.810 E32.38385
G1 X77.561 Y91.991 E32.40808
G1 X77.846 Y93.114 E32.45632
G1 X78.191 Y93.733 E32.48583
G0 F10500 X78.249 Y94.602
;TYPE:SKIN
G1 F900 X79.437 Y95.789 E32.55575
G0 F10500 X80.261 Y97.498
G1 F900 X64.643 Y81.880 E33.47542
G0 F10500 X63.433 Y81.554
G1 F900 X80.594 Y98.714 E34.48591
G0 F10500 X80.845 Y99.849
G1 F900 X62.359 Y81.363 E35.57446
G0 F10500 X61.482 Y81.371
G1 F900 X80.952 Y100.840 E36.72092
G0 F10500 X80.991 Y101.763
G1 F900 X59.673 Y80.445 E37.97623
G0 F10500 X57.786 Y79.442
G1 F900 X81.029 Y102.685 E39.34489
G0 F10500 X81.334 Y103.874
G1 F900 X57.247 Y79.787 E40.76326
G0 F10500 X56.093 Y79.516
G1 F900 X81.424 Y104.848 E42.25490
G0 F10500 X81.658 Y105.965
G1 F900 X54.875 Y79.183 E43.83199
G0 F10500 X53.701 Y78.893
G1 F900 X81.672 Y106.863 E45.47903
G0 F10500 X81.911 Y107.987
G1 F900 X52.588 Y78.664 E47.20571
G0 F10500 X51.526 Y78.485
G1 F900 X82.545 Y109.504 E49.03226
G0 F10500 X82.570 Y110.414
G1 F900 X50.463 Y78.306 E50.92291
G0 F10500 X49.365 Y78.092
G1 F900 X82.935 Y111.662 E52.89968
G0 F10500 X83.036 Y112.647
G1 F900 X48.413 Y78.024 E54.93845
G0 F10500 X47.077 Y77.572
G1 F900 X83.036 Y113.531 E57.05590
G0 F10500 X82.908 Y114.287
G1 F900 X46.413 Y77.792 E59.20490
G0 F10500 X45.565 Y77.828
G1 F900 X82.678 Y114.940 E61.39027
G0 F10500 X82.447 Y115.594
G1 F900 X44.723 Y77.870 E63.61165
G0 F10500 X43.968 Y77.998
G1 F900 X82.218 Y116.248 E65.86400
G0 F10500 X81.994 Y116.908
G1 F900 X43.204 Y78.119 E68.14812
G0 F10500 X42.379 Y78.177
G1 F900 X81.832 Y117.630 E70.47130
G0 F10500 X81.670 Y118.352
G1 F900 X41.554 Y78.236 E72.83353
G0 F10500 X40.754 Y78.320
G1 F900 X81.503 Y119.069 E75.23304
G0 F10500 X81.325 Y119.774
G1 F900 X40.116 Y78.566 E77.65960
G0 F10500 X39.490 Y78.824
G1 F900 X81.146 Y120.479 E80.11248
G0 F10500 X80.955 Y121.173
G1 F900 X38.762 Y78.980 E82.59701
G0 F10500 X38.038 Y79.139
G1 F900 X80.685 Y121.787 E85.10831
G0 F10500 X80.442 Y122.427
G1 F900 X37.511 Y79.496 E87.63630
G0 F10500 X36.947 Y79.816
G1 F900 X80.410 Y123.279 E90.19561
G0 F10500 X80.654 Y124.407
G1 F900 X36.208 Y79.961 E92.81281
G0 F10500 X35.538 Y80.175
G1 F900 X80.827 Y125.464 E95.47966
G0 F10500 X80.985 Y126.506
G1 F900 X34.999 Y80.520 E98.18754
G0 F10500 X34.438 Y80.842
G1 F900 X81.088 Y127.493 E100.93455
G0 F10500 X81.175 Y128.464
G1 F900 X33.935 Y81.223 E103.71631
G0 F10500 X33.326 Y81.499
G1 F900 X81.186 Y129.358 E106.53451
G0 F10500 X81.189 Y130.245
G1 F900 X32.813 Y81.870 E109.38310
G0 F10500 X32.323 Y82.263
G1 F900 X81.191 Y131.131 E112.26069
G0 F10500 X81.124 Y131.948
G1 F900 X31.829 Y82.653 E115.16342
G0 F10500 X31.283 Y82.991
G1 F900 X81.054 Y132.762 E118.09419
G0 F10500 X80.942 Y133.534
G1 F900 X30.808 Y83.400 E121.04632
G0 F10500 X30.375 Y83.850
G1 F900 X80.820 Y134.296 E124.01681
G0 F10500 X80.686 Y135.046
G1 F900 X29.941 Y84.301 E127.00492
G0 F10500 X29.407 Y84.650
G1 F900 X80.514 Y135.757 E130.01436
G0 F10500 X80.337 Y136.464
G1 F900 X28.922 Y85.050 E133.04190
G0 F10500 X28.784 Y85.796
G1 F900 X80.123 Y137.134 E136.06496
G0 F10500 X79.909 Y137.804
G1 F900 X28.392 Y86.287 E139.09854
G0 F10500 X28.007 Y86.786
G1 F900 X79.661 Y138.440 E142.14018
G0 F10500 X79.412 Y139.075
G1 F900 X27.712 Y87.375 E145.18453
G0 F10500 X27.401 Y87.947
G1 F900 X79.137 Y139.683 E148.23101
G0 F10500 X63.949 Y139.522
G1 F900 X20.409 Y95.981 E150.79489
G0 F10500 X20.878 Y95.566
G1 F900 X66.453 Y141.142 E153.47860
G0 F10500 X68.360 Y142.165
G1 F900 X21.249 Y95.054 E156.25273
G0 F10500 X21.500 Y94.422
G1 F900 X69.986 Y142.907 E159.10779
G0 F10500 X71.554 Y143.592
G1 F900 X21.823 Y93.860 E162.03623
G0 F10500 X22.249 Y93.402
G1 F900 X72.673 Y143.826 E165.00544
G0 F10500 X73.705 Y143.974
G1 F900 X22.580 Y92.849 E168.01594
G0 F10500 X22.793 Y92.179
G1 F900 X74.691 Y144.077 E171.07195
G0 F10500 X75.513 Y144.015
G1 F900 X23.072 Y91.574 E174.15994
G0 F10500 X23.437 Y91.054
G1 F900 X76.141 Y143.759 E177.26344
G0 F10500 X76.621 Y143.355
G1 F900 X23.876 Y90.610 E180.36932
G0 F10500 X24.413 Y90.263
G1 F900 X77.065 Y142.915 E183.46974
G0 F10500 X77.489 Y142.455
G1 F900 X24.947 Y89.913 E186.56367
G0 F10500 X25.527 Y89.610
G1 F900 X77.863 Y141.946 E189.64547
G0 F10500 X78.220 Y141.418
G1 F900 X26.102 Y89.301 E192.71441
G0 F10500 X26.553 Y88.867
G1 F900 X78.548 Y140.863 E195.77616
G0 F10500 X78.848 Y140.279
G1 F900 X27.004 Y88.435 E198.82899
G0 F10500 X19.939 Y96.396
G1 F900 X61.200 Y137.657 E201.25864
G0 F10500 X60.183 Y137.523
G1 F900 X19.470 Y96.811 E203.65600
G0 F10500 X19.098 Y97.323
G1 F900 X59.469 Y137.693 E206.03321
G0 F10500 X58.764 Y137.872
G1 F900 X18.865 Y97.973 E208.38266
G0 F10500 X18.697 Y98.689
G1 F900 X58.020 Y138.012 E210.69820
G0 F10500 X57.241 Y138.117
G1 F900 X18.528 Y99.404 E212.97781
G0 F10500 X18.360 Y100.119
G1 F900 X56.478 Y138.238 E215.22242
G0 F10500 X55.653 Y138.297
G1 F900 X18.054 Y100.698 E217.43643
G0 F10500 X17.925 Y101.453
G1 F900 X54.843 Y138.371 E219.61035
G0 F10500 X54.059 Y138.470
G1 F900 X17.885 Y102.297 E221.74042
G0 F10500 X17.961 Y103.257
G1 F900 X53.515 Y138.810 E223.83399
G0 F10500 X53.160 Y139.339
G1 F900 X17.822 Y104.001 E225.91486
G0 F10500 X17.689 Y104.752
G1 F900 X51.832 Y138.895 E227.92537
G0 F10500 X51.326 Y139.273
G1 F900 X18.024 Y105.971 E229.88636
G0 F10500 X17.896 Y106.727
G1 F900 X50.820 Y139.651 E231.82509
G0 F10500 X50.314 Y140.029
G1 F900 X17.577 Y107.292 E233.75280
G0 F10500 X17.754 Y108.352
G1 F900 X49.807 Y140.406 E235.64027
G0 F10500 X49.293 Y140.775
G1 F900 X17.986 Y109.469 E237.48376
G0 F10500 X18.315 Y110.682
G1 F900 X48.743 Y141.110 E239.27551
G0 F10500 X48.193 Y141.443
G1 F900 X18.613 Y111.863 E241.01732
G0 F10500 X18.690 Y112.825
G1 F900 X47.644 Y141.778 E242.72225
G0 F10500 X47.080 Y142.098
G1 F900 X18.771 Y113.789 E244.38922
G0 F10500 X18.823 Y114.725
G1 F900 X46.480 Y142.382 E246.01780
G0 F10500 X45.879 Y142.665
G1 F900 X18.689 Y115.475 E247.61889
G0 F10500 X18.934 Y116.604
G1 F900 X45.279 Y142.949 E249.17021
G0 F10500 X44.672 Y143.225
G1 F900 X19.384 Y117.938 E250.65926
G0 F10500 X19.066 Y118.504
G1 F900 X44.020 Y143.458 E252.12868
G0 F10500 X43.368 Y143.690
G1 F900 X19.774 Y120.095 E253.51804
G0 F10500 X20.493 Y121.698
G1 F900 X42.717 Y143.923 E254.82673
G0 F10500 X42.066 Y144.155
G1 F900 X20.477 Y122.566 E256.09800
G0 F10500 X20.483 Y123.456
G1 F900 X41.377 Y144.350 E257.32834
G0 F10500 X40.683 Y144.540
G1 F900 X31.396 Y135.253 E257.87520
G0 F10500 X31.989 Y136.730
G1 F900 X39.971 Y144.712 E258.34522
G0 F10500 X39.235 Y144.860
G1 F900 X32.457 Y138.082 E258.74435
G0 F10500 X32.925 Y139.434
G1 F900 X38.501 Y145.009 E259.07266
G0 F10500 X37.766 Y145.159
G1 F900 X33.571 Y140.963 E259.31971
G0 F10500 X34.487 Y142.763
G1 F900 X37.046 Y145.323 E259.47043
G0 F10500 X30.228 Y134.137
G0 X28.617 Y132.474
G1 F900 X20.652 Y124.509 E259.93944
G0 F10500 X20.837 Y125.578
G1 F900 X26.968 Y131.709 E260.30047
G0 F10500 X65.861 Y82.213
G1 F900 X77.048 Y93.401 E260.95924
G0 F10500 X76.747 Y92.216
G1 F900 X67.342 Y82.810 E261.51309
G0 F10500 X69.005 Y83.590
G1 F900 X76.774 Y91.358 E261.97053
G0 F10500 X77.289 Y90.990
G1 F900 X71.706 Y85.407 E262.29929
G0 F10500 X73.133 Y85.950
G1 F900 X76.291 Y89.108 E262.48525
G0 F10500 X74.603 Y86.536
G1 F900 X74.329 Y86.262 E262.50138
;LAYER:1
M106 S191
G0 F10500 X73.492 Y85.653 Z0.805
;TYPE:WALL-INNER
G1 F1140 X73.746 Y85.336 E262.51348
G1 X74.198 Y85.606 E262.52916
G1 X74.872 Y86.196 E262.55584
G1 X75.710 Y87.580 E262.60403
G1 X76.933 Y89.313 E262.66720
G1 X77.674 Y90.585 E262.71104
G1 X77.689 Y90.965 E262.72237
G1 X77.856 Y91.439 E262.73734
G1 X77.039 Y91.707 E262.76295
G1 X77.435 Y93.277 E262.81117
G1 X77.985 Y94.261 E262.84475
G1 X78.712 Y94.023 E262.86753
G1 X79.076 Y94.584 E262.88745
G1 X79.812 Y94.886 E262.91114
G1 X79.846 Y95.843 E262.93966
G1 X80.473 Y96.840 E262.97474
G1 X80.644 Y97.357 E262.99096
G1 X81.218 Y99.459 E263.05585
G1 X81.353 Y100.771 E263.09514
G1 X81.447 Y102.945 E263.15995
G1 X81.712 Y103.545 E263.17948
G1 X81.813 Y104.645 E263.21238
G1 X81.830 Y104.826 E263.21780
G1 X82.054 Y105.390 E263.23587
G1 X82.080 Y107.071 E263.28594
G1 X82.085 Y107.315 E263.29321
G1 X82.750 Y109.012 E263.34750
G1 X83.002 Y109.506 E263.36401
G1 X83.005 Y109.533 E263.36482
G1 X82.957 Y109.652 E263.36864
G1 X82.976 Y110.339 E263.38911
G1 X83.268 Y110.896 E263.40784
G1 X83.398 Y112.226 E263.44764
G1 X83.443 Y112.414 E263.45340
G1 X83.443 Y113.992 E263.50040
G1 X82.480 Y116.727 E263.58676
G1 X82.405 Y116.936 E263.59337
G1 X81.964 Y118.893 E263.65312
G1 X81.823 Y119.483 E263.67119
G1 X81.401 Y121.126 E263.72171
G1 X81.253 Y121.562 E263.73542
G1 X80.949 Y122.170 E263.75567
G1 X80.868 Y122.324 E263.76085
G1 X80.768 Y123.014 E263.78162
G1 X81.084 Y124.474 E263.82611
G1 X81.411 Y126.610 E263.89046
G1 X81.589 Y128.535 E263.94804
G1 X81.598 Y131.053 E264.02304
G1 X81.599 Y131.176 E264.02670
G1 X81.452 Y132.891 E264.07797
G1 X81.136 Y134.887 E264.13815
G1 X80.752 Y136.498 E264.18748
G1 X80.308 Y137.889 E264.23097
G1 X79.690 Y139.477 E264.28172
G1 X79.033 Y140.835 E264.32665
G1 X78.446 Y141.837 E264.36124
G1 X77.810 Y142.707 E264.39333
G1 X77.065 Y143.515 E264.42607
G1 X76.254 Y144.197 E264.45763
G1 X75.875 Y144.375 E264.47010
G1 X74.918 Y144.509 E264.49888
G1 X72.748 Y144.283 E264.56386
G1 X72.253 Y144.126 E264.57932
G1 X71.322 Y143.964 E264.60747
G1 X67.953 Y142.427 E264.71776
G1 X65.974 Y141.345 E264.78493
G1 X64.081 Y140.128 E264.85196
G1 X61.699 Y138.310 E264.94121
G1 X61.041 Y138.031 E264.96249
G1 X60.884 Y137.964 E264.96758
G1 X60.194 Y137.932 E264.98815
G1 X59.032 Y138.218 E265.02379
G1 X59.791 Y139.490 E265.06791
G1 X60.034 Y140.289 E265.09278
G1 X60.067 Y141.149 E265.11841
G1 X59.873 Y141.986 E265.14400
G1 X59.486 Y142.743 E265.16932
G1 X58.905 Y143.378 E265.19496
G1 X57.962 Y143.986 E265.22837
G1 X56.985 Y144.288 E265.25883
G1 X55.949 Y144.302 E265.28969
G1 X54.835 Y144.020 E265.32391
G1 X54.181 Y143.667 E265.34605
G1 X53.609 Y143.188 E265.36827
G1 X53.150 Y142.609 E265.39028
G1 X52.820 Y141.935 E265.41263
G1 X52.660 Y141.250 E265.43358
G1 X52.650 Y140.512 E265.45556
G1 X52.751 Y139.886 E265.47445
G1 X51.886 Y139.363 E265.50455
G1 X49.735 Y140.970 E265.58452
G1 X49.434 Y141.179 E265.59543
G1 X47.446 Y142.377 E265.66456
G1 X44.963 Y143.548 E265.74633
G1 X42.123 Y144.568 E265.83620
G1 X40.431 Y145.030 E265.88844
G1 X40.351 Y145.053 E265.89092
G1 X37.359 Y145.657 E265.98183
G1 X37.097 Y145.733 E265.98995
G1 X36.900 Y145.733 E265.99582
G1 X35.974 Y145.408 E266.02505
G1 X35.437 Y144.985 E266.04541
G1 X35.028 Y144.464 E266.06514
G1 X33.754 Y142.328 E266.13921
G1 X32.706 Y140.060 E266.21362
G1 X31.341 Y136.099 E266.33840
G1 X31.211 Y135.754 E266.34938
G1 X30.760 Y134.949 E266.37686
G1 X30.192 Y134.213 E266.40455
G1 X29.440 Y133.494 E266.43554
G1 X28.705 Y132.984 E266.46218
G1 X28.614 Y132.920 E266.46550
G1 X27.342 Y132.310 E266.50751
G1 X25.660 Y131.600 E266.56189
G1 X25.238 Y131.335 E266.57673
G1 X24.787 Y130.867 E266.59609
G1 X24.530 Y130.285 E266.61504
G1 X24.461 Y129.961 E266.62490
G1 X23.973 Y129.477 E266.64537
G1 X23.274 Y129.443 E266.66622
G1 X23.179 Y129.415 E266.66917
G1 X23.131 Y129.366 E266.67121
G1 X22.604 Y128.385 E266.70438
G1 X22.124 Y127.737 E266.72839
G1 X21.009 Y126.789 E266.77198
G1 X20.787 Y126.503 E266.78277
G1 X20.423 Y125.641 E266.81063
G1 X20.069 Y123.433 E266.87724
G1 X20.057 Y123.361 E266.87941
G1 X20.092 Y121.339 E266.93964
G1 X19.853 Y120.798 E266.95726
G1 X18.899 Y119.719 E267.00015
G1 X18.628 Y119.321 E267.01449
G1 X18.521 Y118.940 E267.02628
G1 X18.593 Y118.518 E267.03903
G1 X19.012 Y117.742 E267.06530
G1 X18.474 Y116.576 E267.10354
G1 X18.274 Y115.822 E267.12677
G1 X18.274 Y115.470 E267.13726
G1 X18.404 Y114.961 E267.15290
G1 X18.438 Y114.368 E267.17060
G1 X18.312 Y113.399 E267.19970
G1 X18.254 Y112.118 E267.23789
G1 X17.984 Y110.912 E267.27470
G1 X17.546 Y110.225 E267.29896
G1 X17.536 Y110.180 E267.30034
G1 X17.591 Y109.298 E267.32666
G1 X17.395 Y108.613 E267.34788
G1 X17.189 Y107.621 E267.37805
G1 X17.067 Y107.373 E267.38628
G1 X17.480 Y106.639 E267.41137
G1 X17.597 Y106.430 E267.41850
G1 X17.617 Y105.992 E267.43156
G1 X17.326 Y105.076 E267.46019
G1 X17.260 Y104.610 E267.47420
G1 X17.558 Y103.371 E267.51216
G1 X17.549 Y102.689 E267.53247
G1 X17.434 Y102.109 E267.55008
G1 X17.436 Y101.911 E267.55598
G1 X17.801 Y99.768 E267.62072
G1 X18.030 Y99.755 E267.62756
G1 X18.533 Y97.617 E267.69297
G1 X18.847 Y96.880 E267.71683
G1 X18.965 Y96.716 E267.72285
G1 X20.565 Y95.300 E267.78648
G1 X20.798 Y95.092 E267.79579
G1 X21.257 Y93.936 E267.83283
G1 X21.499 Y93.608 E267.84497
G1 X21.843 Y93.281 E267.85911
G1 X22.179 Y92.774 E267.87722
G1 X22.463 Y91.882 E267.90510
G1 X22.875 Y91.067 E267.93230
G1 X23.578 Y90.302 E267.96324
G1 X23.953 Y90.129 E267.97554
G1 X24.388 Y89.745 E267.99283
G1 X25.665 Y89.082 E268.03568
G1 X25.843 Y88.989 E268.04166
G1 X26.925 Y87.948 E268.08638
G1 X27.297 Y87.346 E268.10746
G1 X27.441 Y86.930 E268.12057
G1 X27.877 Y86.225 E268.14526
G1 X27.899 Y86.191 E268.14646
G1 X28.384 Y85.727 E268.16645
G1 X28.546 Y84.857 E268.19281
G1 X28.496 Y84.787 E268.19537
G1 X28.717 Y84.598 E268.20403
G1 X29.661 Y84.018 E268.23703
G1 X30.831 Y82.794 E268.28746
G1 X31.598 Y82.320 E268.31432
G1 X33.027 Y81.175 E268.36885
G1 X33.218 Y81.103 E268.37493
G1 X33.463 Y81.072 E268.38229
G1 X34.465 Y80.312 E268.41974
G1 X34.938 Y80.105 E268.43512
G1 X35.085 Y80.040 E268.43991
G1 X35.360 Y79.790 E268.45098
G1 X35.610 Y79.666 E268.45929
G1 X36.920 Y79.407 E268.49906
G1 X37.881 Y78.755 E268.53365
G1 X39.508 Y78.406 E268.58321
G1 X40.456 Y77.957 E268.61445
G1 X41.033 Y77.867 E268.63184
G1 X43.261 Y77.710 E268.69836
G1 X44.720 Y77.459 E268.74246
G1 X46.266 Y77.393 E268.78854
G1 X46.720 Y76.825 E268.81020
G1 X46.880 Y76.733 E268.81570
G1 X47.029 Y76.733 E268.82013
G1 X47.049 Y77.107 E268.83129
G1 X48.002 Y77.575 E268.86291
G1 X48.360 Y77.621 E268.87366
G1 X48.976 Y77.584 E268.89204
G1 X49.876 Y77.797 E268.91959
G1 X53.123 Y78.342 E269.01765
G1 X54.558 Y78.675 E269.06152
G1 X57.129 Y79.381 E269.14093
G1 X57.708 Y79.011 E269.16139
G1 X57.870 Y78.985 E269.16628
G1 X58.226 Y79.029 E269.17696
G1 X59.395 Y79.419 E269.21367
G1 X59.351 Y79.674 E269.22137
G1 X59.810 Y80.059 E269.23922
G1 X61.342 Y80.839 E269.29042
G1 X61.595 Y80.968 E269.29888
G1 X62.272 Y80.959 E269.31904
G1 X62.614 Y80.755 E269.33090
G1 X62.738 Y80.776 E269.33465
G1 X63.883 Y81.318 E269.37238
G1 X65.355 Y81.606 E269.41705
G1 X65.838 Y81.755 E269.43210
G1 X66.651 Y82.149 E269.45901
G1 X68.233 Y82.683 E269.50874
G1 X68.356 Y82.742 E269.51280
G1 X68.608 Y83.019 E269.52396
G1 X69.556 Y83.356 E269.55392
G1 X70.234 Y83.760 E269.57743
G1 X70.365 Y83.838 E269.58197
G1 X70.747 Y83.947 E269.59380
G1 X70.916 Y84.045 E269.59962
G1 X71.820 Y85.017 E269.63915
G1 X73.492 Y85.653 E269.69243
G0 F10500 X58.201 Y138.412
G1 F1140 X57.897 Y138.426 E269.70150
G1 X56.560 Y138.641 E269.74183
G1 X55.245 Y138.733 E269.78109
G1 X53.947 Y138.894 E269.82004
G1 X53.406 Y139.701 E269.84898
G1 X53.192 Y140.803 E269.88241
G1 X53.259 Y141.462 E269.90214
G1 X53.465 Y142.085 E269.92169
G1 X54.008 Y142.827 E269.94907
G1 X54.150 Y143.021 E269.95623
G1 X55.166 Y143.658 E269.99195
G1 X56.362 Y143.887 E270.02821
G1 X57.478 Y143.683 E270.06200
G1 X58.485 Y143.099 E270.09667
G1 X59.074 Y142.348 E270.12510
G1 X59.209 Y142.177 E270.13159
G1 X59.440 Y141.532 E270.15199
G1 X59.525 Y140.823 E270.17326
G1 X59.292 Y139.655 E270.20873
G1 X58.746 Y138.871 E270.23719
G1 X58.606 Y138.673 E270.24441
G1 X58.201 Y138.412 E270.25876
G0 F10500 X57.948 Y138.924
;TYPE:WALL-OUTER
G1 F1080 X56.641 Y139.134 E270.29819
G1 X55.292 Y139.231 E270.33847
G1 X54.235 Y139.362 E270.37019
G1 X53.877 Y139.896 E270.38934
G1 X53.697 Y140.826 E270.41755
G1 X53.751 Y141.357 E270.43345
G1 X53.915 Y141.853 E270.44901
G1 X54.498 Y142.649 E270.47839
G1 X55.352 Y143.185 E270.50842
G1 X56.364 Y143.378 E270.53911
G1 X57.303 Y143.207 E270.56753
G1 X58.151 Y142.715 E270.59673
G1 X58.766 Y141.931 E270.62641
G1 X58.950 Y141.417 E270.64267
G1 X59.019 Y140.842 E270.65992
G1 X58.822 Y139.855 E270.68989
G1 X58.254 Y139.040 E270.71948
G1 X58.064 Y138.919 E270.72619
G1 X57.948 Y138.924 E270.72965
G0 F10500 X57.895 Y138.579
G0 X60.258 Y138.085
G0 X60.243 Y138.435
G1 F1080 X59.807 Y138.542 E270.74302
G1 X60.251 Y139.287 E270.76885
G1 X60.534 Y140.214 E270.79772
G1 X60.569 Y141.196 E270.82698
G1 X60.346 Y142.157 E270.85636
G1 X59.900 Y143.031 E270.88559
G1 X59.230 Y143.764 E270.91517
G1 X58.176 Y144.443 E270.95251
G1 X57.062 Y144.787 E270.98723
G1 X55.889 Y144.803 E271.02217
G1 X54.654 Y144.490 E271.06012
G1 X53.899 Y144.082 E271.08568
G1 X53.247 Y143.537 E271.11099
G1 X52.726 Y142.880 E271.13596
G1 X52.346 Y142.101 E271.16177
G1 X52.174 Y141.366 E271.18426
G1 X52.159 Y141.303 E271.18618
G1 X52.149 Y140.478 E271.21076
G1 X52.204 Y140.139 E271.22099
G1 X51.915 Y139.965 E271.23103
G1 X50.033 Y141.372 E271.30102
G1 X49.711 Y141.596 E271.31270
G1 X47.682 Y142.818 E271.38325
G1 X45.039 Y144.066 E271.47030
G1 X42.259 Y145.049 E271.55812
G1 X40.564 Y145.512 E271.61045
G1 X37.478 Y146.143 E271.70426
G1 X37.179 Y146.230 E271.71354
G1 X36.814 Y146.233 E271.72441
G1 X35.755 Y145.861 E271.75784
G1 X35.731 Y145.853 E271.75859
G1 X35.080 Y145.341 E271.78326
G1 X34.616 Y144.750 E271.80564
G1 X33.308 Y142.556 E271.88172
G1 X32.241 Y140.246 E271.95750
G1 X30.870 Y136.268 E272.08282
G1 X30.756 Y135.965 E272.09246
G1 X30.342 Y135.226 E272.11769
G1 X29.819 Y134.548 E272.14319
G1 X29.123 Y133.883 E272.17186
G1 X28.362 Y133.354 E272.19946
G1 X27.133 Y132.764 E272.24007
G1 X25.431 Y132.046 E272.29508
G1 X24.919 Y131.725 E272.31308
G1 X24.370 Y131.155 E272.33665
G1 X24.052 Y130.438 E272.36001
G1 X24.003 Y130.211 E272.36693
G1 X23.757 Y129.967 E272.37725
G1 X23.191 Y129.939 E272.39413
G1 X22.911 Y129.857 E272.40282
G1 X22.722 Y129.663 E272.41088
G1 X22.181 Y128.654 E272.44498
G1 X21.757 Y128.081 E272.46621
G1 X20.685 Y127.170 E272.50811
G1 X20.642 Y127.133 E272.50980
G1 X20.350 Y126.756 E272.52400
G1 X19.938 Y125.780 E272.55556
G1 X19.576 Y123.514 E272.62390
G1 X19.556 Y123.396 E272.62747
G1 X19.590 Y121.440 E272.68573
G1 X19.427 Y121.071 E272.69775
G1 X18.513 Y120.038 E272.73883
G1 X18.166 Y119.528 E272.75720
G1 X18.010 Y118.968 E272.77451
G1 X18.114 Y118.352 E272.79312
G1 X18.378 Y117.868 E272.80954
G1 X18.454 Y117.726 E272.81433
G1 X18.002 Y116.745 E272.84650
G1 X17.774 Y115.889 E272.87289
G1 X17.777 Y115.393 E272.88766
G1 X17.907 Y114.884 E272.90331
G1 X17.936 Y114.386 E272.91816
G1 X17.815 Y113.451 E272.94624
G1 X17.757 Y112.185 E272.98399
G1 X17.515 Y111.107 E273.01689
G1 X17.076 Y110.417 E273.04125
G1 X17.033 Y110.219 E273.04729
G1 X17.086 Y109.353 E273.07313
G1 X16.911 Y108.739 E273.09214
G1 X16.712 Y107.785 E273.12117
G1 X16.503 Y107.361 E273.13525
G1 X16.489 Y107.352 E273.13574
G1 X16.532 Y107.304 E273.13766
G1 X17.044 Y106.395 E273.16873
G1 X17.103 Y106.289 E273.17235
G1 X17.114 Y106.058 E273.17923
G1 X16.838 Y105.192 E273.20631
G1 X16.752 Y104.586 E273.22453
G1 X17.057 Y103.315 E273.26346
G1 X17.050 Y102.741 E273.28056
G1 X16.936 Y102.165 E273.29805
G1 X16.936 Y101.866 E273.30695
G1 X17.375 Y99.292 E273.38472
G1 X17.629 Y99.278 E273.39230
G1 X18.056 Y97.462 E273.44786
G1 X18.408 Y96.636 E273.47460
G1 X18.592 Y96.380 E273.48399
G1 X20.377 Y94.798 E273.55503
G1 X20.803 Y93.725 E273.58942
G1 X20.817 Y93.691 E273.59051
G1 X21.123 Y93.275 E273.60589
G1 X21.458 Y92.958 E273.61963
G1 X21.724 Y92.556 E273.63398
G1 X21.997 Y91.697 E273.66083
G1 X22.461 Y90.779 E273.69146
G1 X23.279 Y89.888 E273.72749
G1 X23.677 Y89.706 E273.74052
G1 X24.102 Y89.330 E273.75742
G1 X25.434 Y88.639 E273.80212
G1 X25.548 Y88.579 E273.80595
G1 X26.533 Y87.631 E273.84667
G1 X26.843 Y87.130 E273.86422
G1 X26.988 Y86.714 E273.87734
G1 X27.457 Y85.954 E273.90394
G1 X27.512 Y85.869 E273.90695
G1 X27.922 Y85.477 E273.92385
G1 X28.015 Y84.976 E273.93902
G1 X27.857 Y84.757 E273.94706
G1 X28.070 Y84.493 E273.95717
G1 X28.420 Y84.194 E273.97088
G1 X29.344 Y83.626 E274.00318
G1 X30.516 Y82.401 E274.05367
G1 X31.309 Y81.911 E274.08144
G1 X32.775 Y80.737 E274.13738
G1 X33.096 Y80.614 E274.14761
G1 X33.268 Y80.593 E274.15277
G1 X34.184 Y79.898 E274.18702
G1 X34.212 Y79.876 E274.18808
G1 X34.737 Y79.647 E274.20514
G1 X34.809 Y79.615 E274.20749
G1 X35.074 Y79.375 E274.21813
G1 X35.450 Y79.187 E274.23065
G1 X36.723 Y78.936 E274.26930
G1 X37.680 Y78.286 E274.30375
G1 X39.347 Y77.929 E274.35453
G1 X40.307 Y77.474 E274.38617
G1 X40.978 Y77.369 E274.40640
G1 X43.201 Y77.213 E274.47277
G1 X44.699 Y76.955 E274.51804
G1 X46.018 Y76.902 E274.55736
G1 X46.388 Y76.439 E274.57501
G1 X46.747 Y76.233 E274.58734
G1 X47.192 Y76.233 E274.60059
G1 X47.458 Y76.345 E274.60919
G1 X47.512 Y76.390 E274.61128
G1 X47.533 Y76.788 E274.62315
G1 X48.148 Y77.090 E274.64356
G1 X48.377 Y77.119 E274.65043
G1 X49.019 Y77.080 E274.66959
G1 X49.975 Y77.306 E274.69885
G1 X53.221 Y77.852 E274.79688
G1 X54.677 Y78.189 E274.84139
G1 X57.047 Y78.840 E274.91459
G1 X57.528 Y78.533 E274.93159
G1 X57.865 Y78.480 E274.94175
G1 X58.331 Y78.537 E274.95573
G1 X59.684 Y78.989 E274.99822
G1 X59.765 Y79.019 E275.00079
G1 X59.851 Y79.064 E275.00368
G1 X59.945 Y79.179 E275.00810
G1 X59.893 Y79.476 E275.01708
G1 X60.087 Y79.639 E275.02463
G1 X61.713 Y80.467 E275.07898
G1 X62.131 Y80.461 E275.09143
G1 X62.347 Y80.332 E275.09892
G1 X62.367 Y80.205 E275.10275
G1 X62.890 Y80.295 E275.11855
G1 X64.040 Y80.839 E275.15644
G1 X65.475 Y81.120 E275.19999
G1 X66.024 Y81.289 E275.21710
G1 X66.841 Y81.686 E275.24416
G1 X68.416 Y82.217 E275.29366
G1 X68.660 Y82.334 E275.30172
G1 X68.893 Y82.590 E275.31203
G1 X69.768 Y82.901 E275.33969
G1 X70.565 Y83.376 E275.36732
G1 X70.944 Y83.483 E275.37905
G1 X71.232 Y83.650 E275.38896
G1 X72.107 Y84.591 E275.42723
G1 X73.329 Y85.056 E275.46618
G1 X73.508 Y84.833 E275.47469
G1 X73.621 Y84.769 E275.47856
G1 X73.835 Y84.808 E275.48504
G1 X74.479 Y85.192 E275.50737
G1 X75.258 Y85.870 E275.53813
G1 X76.129 Y87.306 E275.58815
G1 X77.350 Y89.037 E275.65124
G1 X78.168 Y90.441 E275.69964
G1 X78.186 Y90.870 E275.71242
G1 X78.443 Y91.601 E275.73550
G1 X78.692 Y92.836 E275.77302
G1 X78.934 Y93.428 E275.79207
G1 X78.959 Y93.484 E275.79390
G1 X79.411 Y94.181 E275.81864
G1 X80.203 Y94.506 E275.84414
G1 X80.305 Y94.686 E275.85030
G1 X80.341 Y95.691 E275.88025
G1 X80.912 Y96.599 E275.91220
G1 X80.930 Y96.627 E275.91319
G1 X81.120 Y97.204 E275.93128
G1 X81.711 Y99.366 E275.99804
G1 X81.852 Y100.738 E276.03911
G1 X81.942 Y102.829 E276.10145
G1 X82.203 Y103.417 E276.12061
G1 X82.321 Y104.708 E276.15922
G1 X82.553 Y105.291 E276.17791
G1 X82.583 Y107.216 E276.23525
G1 X83.207 Y108.807 E276.28615
G1 X83.490 Y109.362 E276.30470
G1 X83.515 Y109.605 E276.31198
G1 X83.460 Y109.742 E276.31637
G1 X83.473 Y110.209 E276.33029
G1 X83.756 Y110.747 E276.34839
G1 X83.892 Y112.143 E276.39017
G1 X83.943 Y112.355 E276.39666
G1 X83.943 Y114.082 E276.44810
G1 X82.950 Y116.897 E276.53700
G1 X82.886 Y117.075 E276.54264
G1 X82.453 Y119.000 E276.60140
G1 X82.307 Y119.607 E276.62000
G1 X81.886 Y121.252 E276.67057
G1 X81.715 Y121.754 E276.68636
G1 X81.389 Y122.407 E276.70810
G1 X81.351 Y122.481 E276.71058
G1 X81.276 Y122.997 E276.72611
G1 X81.574 Y124.372 E276.76801
G1 X81.908 Y126.552 E276.83370
G1 X82.089 Y128.510 E276.89226
G1 X82.099 Y131.192 E276.97214
G1 X81.949 Y132.949 E277.02466
G1 X81.626 Y134.990 E277.08620
G1 X81.234 Y136.633 E277.13651
G1 X80.785 Y138.042 E277.18056
G1 X80.150 Y139.673 E277.23268
G1 X79.474 Y141.073 E277.27899
G1 X78.862 Y142.116 E277.31500
G1 X78.201 Y143.021 E277.34838
G1 X77.407 Y143.882 E277.38327
G1 X76.553 Y144.599 E277.41648
G1 X76.524 Y144.623 E277.41760
G1 X76.022 Y144.859 E277.43412
G1 X74.963 Y145.008 E277.46597
G1 X74.930 Y145.013 E277.46696
G1 X72.641 Y144.774 E277.53551
G1 X72.134 Y144.613 E277.55135
G1 X71.174 Y144.446 E277.58037
G1 X67.723 Y142.872 E277.69334
G1 X65.714 Y141.773 E277.76154
G1 X63.806 Y140.547 E277.82909
G1 X61.446 Y138.746 E277.91751
G1 X60.846 Y138.492 E277.93691
G1 X60.770 Y138.459 E277.93938
G1 X60.243 Y138.435 E277.95509
G0 F10500 X60.258 Y138.085
G0 X77.915 Y93.828
G0 X78.220 Y93.658
G1 F1080 X78.612 Y93.529 E277.96738
G1 X78.552 Y93.051 E277.98173
G1 X78.081 Y91.892 E278.01899
G1 X77.638 Y92.037 E278.03288
G1 X77.904 Y93.091 E278.06525
G1 X78.220 Y93.658 E278.08459
G0 F10500 X77.915 Y93.828
G0 X59.236 Y138.303
G0 X59.389 Y141.520
G0 X58.449 Y143.058
G0 X57.865 Y143.660
;TYPE:FILL
G1 F1260 X57.760 Y143.764 E278.08899
G0 F10500 X58.653 Y143.225
;TYPE:SKIN
G1 F1380 X59.447 Y142.431 E278.12243
G0 F10500 X59.613 Y141.558
G1 F1380 X59.769 Y141.048 E278.13218
G1 X59.722 Y140.387 E278.13960
G1 X59.609 Y139.793 E278.14742
G1 X59.373 Y139.323 E278.15243
G1 X59.095 Y138.893 E278.15844
G1 X58.915 Y138.366 E278.16557
G1 X58.519 Y138.409 E278.17744
G0 F10500 X58.846 Y138.083
G1 F1380 X83.268 Y113.661 E279.20609
G0 F10500 X83.268 Y112.953
G1 F1380 X57.974 Y138.247 E280.27148
G0 F10500 X57.146 Y138.368
G1 F1380 X83.231 Y112.283 E281.37018
G0 F10500 X83.164 Y111.642
G1 F1380 X56.326 Y138.481 E282.50062
G0 F10500 X55.565 Y138.534
G1 F1380 X83.102 Y110.998 E283.66046
G0 F10500 X82.873 Y110.520
G1 F1380 X54.779 Y138.614 E284.84378
G0 F10500 X53.972 Y138.713
G1 F1380 X82.788 Y109.897 E286.05751
G0 F10500 X82.693 Y109.286
G1 F1380 X52.468 Y139.510 E287.33057
G0 F10500 X52.027 Y139.244
G1 F1380 X82.476 Y108.795 E288.61308
G0 F10500 X82.278 Y108.287
G1 F1380 X50.049 Y140.516 E289.97057
G0 F10500 X48.050 Y141.808
G1 F1380 X82.078 Y107.779 E291.40385
G0 F10500 X81.908 Y107.242
G1 F1380 X46.542 Y142.608 E292.89347
G0 F10500 X45.204 Y143.239
G1 F1380 X81.897 Y106.546 E294.43898
G0 F10500 X81.885 Y105.851
G1 F1380 X44.046 Y143.690 E296.03276
G0 F10500 X42.941 Y144.087
G1 F1380 X81.801 Y105.228 E297.66953
G0 F10500 X81.641 Y104.681
G1 F1380 X41.865 Y144.456 E299.34487
G0 F10500 X40.894 Y144.721
G1 F1380 X81.581 Y104.033 E301.05863
G0 F10500 X81.472 Y103.435
G1 F1380 X39.954 Y144.954 E302.80739
G0 F10500 X39.068 Y145.132
G1 F1380 X81.270 Y102.930 E304.58495
G0 F10500 X81.241 Y102.252
G1 F1380 X38.182 Y145.311 E306.39859
G0 F10500 X37.293 Y145.493
G1 F1380 X81.211 Y101.575 E308.24842
G0 F10500 X81.182 Y100.897
G1 F1380 X36.628 Y145.451 E310.12504
G0 F10500 X36.104 Y145.268
G1 F1380 X81.122 Y100.250 E312.02120
G0 F10500 X83.046 Y114.590
G1 F1380 X59.784 Y137.851 E313.00098
G0 F10500 X53.617 Y139.068
G1 F1380 X52.909 Y139.777 E313.03082
G0 F10500 X53.115 Y140.277
G1 F1380 X52.933 Y140.812 E313.04300
G1 X52.991 Y141.462 E313.05140
G1 X53.150 Y142.010 E313.05833
G1 X53.412 Y142.455 E313.06347
G1 X53.642 Y142.932 E313.06950
G1 X53.923 Y143.005 E313.07814
G0 F10500 X56.363 Y143.833
G0 X58.449 Y143.058
G0 X59.389 Y141.520
G0 X59.241 Y139.677
G0 X59.236 Y138.303
G0 X60.570 Y137.773
G1 F1380 X82.661 Y115.681 E314.00864
G0 F10500 X82.277 Y116.773
G1 F1380 X61.160 Y137.890 E314.89809
G0 F10500 X61.656 Y138.101
G1 F1380 X82.048 Y117.709 E315.75700
G0 F10500 X81.839 Y118.625
G1 F1380 X62.081 Y138.382 E316.58919
G0 F10500 X62.483 Y138.688
G1 F1380 X81.626 Y119.545 E317.39549
G0 F10500 X81.381 Y120.497
G1 F1380 X62.884 Y138.994 E318.17459
G0 F10500 X63.285 Y139.300
G1 F1380 X81.086 Y121.499 E318.92437
G0 F10500 X80.643 Y122.649
G1 F1380 X63.686 Y139.606 E319.63860
G0 F10500 X64.087 Y139.912
G1 F1380 X80.658 Y123.341 E320.33657
G0 F10500 X80.785 Y123.921
G1 F1380 X64.510 Y140.196 E321.02207
G0 F10500 X64.940 Y140.473
G1 F1380 X80.912 Y124.502 E321.69479
G0 F10500 X81.005 Y125.116
G1 F1380 X65.371 Y140.750 E322.35330
G0 F10500 X65.801 Y141.026
G1 F1380 X81.098 Y125.729 E322.99761
G0 F10500 X81.192 Y126.343
G1 F1380 X66.242 Y141.293 E323.62730
G0 F10500 X66.699 Y141.542
G1 F1380 X81.268 Y126.974 E324.24093
G0 F10500 X81.328 Y127.621
G1 F1380 X67.156 Y141.793 E324.83785
G0 F10500 X67.614 Y142.042
G1 F1380 X81.387 Y128.269 E325.41797
G0 F10500 X81.415 Y128.948
G1 F1380 X68.073 Y142.290 E325.97994
G0 F10500 X68.559 Y142.511
G1 F1380 X81.417 Y129.653 E326.52152
G0 F10500 X81.420 Y130.357
G1 F1380 X69.045 Y142.733 E327.04278
G0 F10500 X69.531 Y142.954
G1 F1380 X81.423 Y131.062 E327.54367
G0 F10500 X81.367 Y131.825
G1 F1380 X70.017 Y143.175 E328.02173
G0 F10500 X70.502 Y143.397
G1 F1380 X81.301 Y132.598 E328.47658
G0 F10500 X81.190 Y133.416
G1 F1380 X70.987 Y143.619 E328.90634
G0 F10500 X71.497 Y143.816
G1 F1380 X81.058 Y134.255 E329.30905
G0 F10500 X80.900 Y135.121
G1 F1380 X72.099 Y143.921 E329.67972
G0 F10500 X72.657 Y144.070
G1 F1380 X80.678 Y136.049 E330.01757
G0 F10500 X80.395 Y137.040
G1 F1380 X73.273 Y144.161 E330.31753
G0 F10500 X73.914 Y144.227
G1 F1380 X80.035 Y138.107 E330.57532
G0 F10500 X79.584 Y139.264
G1 F1380 X74.554 Y144.295 E330.78721
G0 F10500 X75.274 Y144.282
G1 F1380 X78.947 Y140.608 E330.94193
G0 F10500 X77.690 Y142.573
G1 F1380 X76.515 Y143.748 E330.99143
G0 F10500 X60.200 Y137.984
G0 X59.236 Y138.303
G0 X59.528 Y142.775
G0 X55.944 Y144.354
G0 X52.606 Y141.247
G0 X52.658 Y139.929
G0 X51.892 Y139.465
G0 X35.698 Y144.967
G1 F1380 X81.057 Y99.608 E332.90195
G0 F10500 X80.921 Y99.037
G1 F1380 X35.358 Y144.600 E334.82107
G0 F10500 X35.066 Y144.185
G1 F1380 X80.769 Y98.481 E336.74610
G0 F10500 X80.617 Y97.926
G1 F1380 X34.802 Y143.742 E338.67585
G0 F10500 X34.537 Y143.299
G1 F1380 X80.465 Y97.372 E340.61032
G0 F10500 X80.275 Y96.855
G1 F1380 X34.274 Y142.856 E342.54789
G0 F10500 X34.010 Y142.412
G1 F1380 X80.002 Y96.420 E344.48507
G0 F10500 X79.729 Y95.986
G1 F1380 X33.770 Y141.945 E346.42087
G0 F10500 X33.547 Y141.461
G1 F1380 X79.653 Y95.355 E348.36286
G0 F10500 X79.398 Y94.903
G1 F1380 X33.323 Y140.978 E350.30354
G0 F10500 X33.100 Y140.494
G1 F1380 X78.923 Y94.670 E352.23363
G0 F10500 X78.645 Y94.242
G1 F1380 X32.876 Y140.010 E354.16140
G0 F10500 X32.693 Y139.486
G1 F1380 X77.831 Y94.348 E356.06261
G0 F10500 X77.579 Y93.893
G1 F1380 X32.512 Y138.960 E357.96084
G0 F10500 X32.331 Y138.435
G1 F1380 X77.326 Y93.439 E359.85605
G0 F10500 X77.160 Y92.898
G1 F1380 X32.150 Y137.909 E361.75190
G0 F10500 X31.969 Y137.383
G1 F1380 X77.017 Y92.334 E363.64934
G0 F10500 X76.875 Y91.769
G1 F1380 X31.787 Y136.856 E365.54843
G0 F10500 X31.606 Y136.330
G1 F1380 X77.427 Y90.510 E367.47839
G0 F10500 X77.167 Y90.063
G1 F1380 X31.420 Y135.810 E369.40526
G0 F10500 X31.181 Y135.341
G1 F1380 X76.907 Y89.616 E371.33122
G0 F10500 X76.629 Y89.186
G1 F1380 X30.928 Y134.888 E373.25617
G0 F10500 X30.624 Y134.484
G1 F1380 X76.337 Y88.772 E375.18158
G0 F10500 X76.044 Y88.357
G1 F1380 X30.314 Y134.087 E377.10773
G0 F10500 X29.953 Y133.742
G1 F1380 X75.751 Y87.943 E379.03677
G0 F10500 X75.468 Y87.519
G1 F1380 X29.592 Y133.395 E380.96907
G0 F10500 X29.180 Y133.100
G1 F1380 X75.202 Y87.078 E382.90752
G0 F10500 X74.935 Y86.638
G1 F1380 X28.762 Y132.810 E384.85231
G0 F10500 X28.294 Y132.572
G1 F1380 X74.641 Y86.225 E386.80445
G0 F10500 X74.264 Y85.895
G1 F1380 X27.816 Y132.343 E388.76084
G0 F10500 X27.335 Y132.117
G1 F1380 X73.850 Y85.601 E390.72007
G0 F10500 X73.068 Y85.677
G1 F1380 X26.838 Y131.907 E392.66728
G0 F10500 X26.340 Y131.697
G1 F1380 X72.555 Y85.482 E394.61386
G0 F10500 X72.043 Y85.287
G1 F1380 X25.843 Y131.487 E396.55981
G0 F10500 X25.396 Y131.227
G1 F1380 X71.593 Y85.030 E398.50563
G0 F10500 X71.253 Y84.664
G1 F1380 X25.040 Y130.876 E400.45210
G0 F10500 X24.784 Y130.425
G1 F1380 X70.912 Y84.297 E402.39502
G0 F10500 X70.458 Y84.044
G1 F1380 X24.623 Y129.879 E404.32559
G0 F10500 X24.270 Y129.524
G1 F1380 X69.983 Y83.812 E406.25100
G0 F10500 X69.539 Y83.548
G1 F1380 X23.795 Y129.293 E408.17777
G0 F10500 X23.219 Y129.161
G1 F1380 X69.027 Y83.353 E410.10720
G0 F10500 X68.505 Y83.168
G1 F1380 X22.973 Y128.701 E412.02503
G0 F10500 X22.720 Y128.246
G1 F1380 X68.133 Y82.833 E413.93783
G0 F10500 X67.605 Y82.655
G1 F1380 X22.419 Y127.840 E415.84105
G0 F10500 X22.081 Y127.471
G1 F1380 X67.076 Y82.476 E417.73624
G0 F10500 X66.550 Y82.295
G1 F1380 X21.698 Y127.146 E419.62539
G0 F10500 X21.316 Y126.822
G1 F1380 X66.074 Y82.063 E421.51062
G0 F10500 X65.575 Y81.856
G1 F1380 X20.974 Y126.457 E423.38922
G0 F10500 X20.753 Y125.971
G1 F1380 X65.009 Y81.714 E425.25330
G0 F10500 X64.418 Y81.599
G1 F1380 X20.569 Y125.447 E427.10020
G0 F10500 X20.472 Y124.838
G1 F1380 X63.826 Y81.484 E428.92628
G0 F10500 X63.346 Y81.256
G1 F1380 X20.373 Y124.229 E430.73630
G0 F10500 X20.276 Y123.619
G1 F1380 X62.867 Y81.028 E432.53024
G0 F10500 X62.052 Y81.136
G1 F1380 X20.238 Y122.950 E434.29145
G0 F10500 X20.251 Y122.230
G1 F1380 X61.412 Y81.069 E436.02515
G0 F10500 X60.943 Y80.831
G1 F1380 X20.264 Y121.510 E437.73855
G0 F10500 X20.113 Y120.954
G1 F1380 X60.474 Y80.593 E439.43856
G0 F10500 X60.005 Y80.354
G1 F1380 X19.841 Y120.519 E441.13029
G0 F10500 X19.509 Y120.143
G1 F1380 X59.568 Y80.084 E442.81758
G0 F10500 X59.184 Y79.762
G1 F1380 X19.178 Y119.768 E444.50263
G0 F10500 X18.872 Y119.366
G1 F1380 X58.827 Y79.412 E446.18552
G0 F10500 X58.297 Y79.234
G1 F1380 X18.719 Y118.812 E447.85255
G0 F10500 X19.166 Y117.659
G1 F1380 X57.426 Y79.398 E449.46408
G0 F10500 X56.679 Y79.438
G1 F1380 X18.943 Y117.174 E451.05352
G0 F10500 X18.719 Y116.691
G1 F1380 X56.124 Y79.286 E452.62903
G0 F10500 X55.570 Y79.133
G1 F1380 X18.545 Y116.158 E454.18852
G0 F10500 X18.449 Y115.547
G1 F1380 X55.015 Y78.980 E455.72870
G0 F10500 X54.458 Y78.831
G1 F1380 X18.595 Y114.694 E457.23926
G0 F10500 X18.570 Y114.012
G1 F1380 X53.885 Y78.697 E458.72673
G0 F10500 X53.311 Y78.563
G1 F1380 X18.488 Y113.387 E460.19349
G0 F10500 X18.456 Y112.711
G1 F1380 X52.718 Y78.449 E461.63661
G0 F10500 X52.113 Y78.348
G1 F1380 X18.417 Y112.043 E463.05587
G0 F10500 X18.287 Y111.466
G1 F1380 X51.507 Y78.246 E464.45510
G0 F10500 X50.901 Y78.145
G1 F1380 X18.159 Y110.887 E465.83419
G0 F10500 X17.894 Y110.445
G1 F1380 X50.296 Y78.043 E467.19897
G0 F10500 X49.699 Y77.933
G1 F1380 X17.729 Y109.903 E468.54554
G0 F10500 X17.741 Y109.184
G1 F1380 X49.127 Y77.798 E469.86752
G0 F10500 X48.426 Y77.791
G1 F1380 X17.583 Y108.634 E471.16663
G0 F10500 X17.458 Y108.052
G1 F1380 X47.827 Y77.684 E472.44576
G0 F10500 X47.353 Y77.450
G1 F1380 X17.318 Y107.485 E473.71083
G0 F10500 X17.777 Y106.319
G1 F1380 X46.879 Y77.217 E474.93661
G0 F10500 X45.803 Y77.586
G1 F1380 X17.703 Y105.686 E476.12018
G0 F10500 X17.534 Y105.148
G1 F1380 X45.064 Y77.618 E477.27975
G0 F10500 X44.261 Y77.714
G1 F1380 X17.462 Y104.513 E478.40852
G0 F10500 X17.686 Y103.581
G1 F1380 X43.407 Y77.861 E479.49187
G0 F10500 X42.632 Y77.928
G1 F1380 X17.726 Y102.835 E480.54094
G0 F10500 X17.634 Y102.220
G1 F1380 X41.872 Y77.982 E481.56184
G0 F10500 X41.111 Y78.035
G1 F1380 X17.691 Y101.456 E482.54832
G0 F10500 X17.836 Y100.604
G1 F1380 X40.141 Y78.298 E483.48782
G0 F10500 X39.051 Y78.681
G1 F1380 X18.282 Y99.451 E484.36264
G0 F10500 X18.499 Y98.526
G1 F1380 X38.150 Y78.875 E485.19034
G0 F10500 X36.689 Y79.629
G1 F1380 X18.739 Y97.579 E485.94639
G0 F10500 X21.291 Y94.320
G1 F1380 X35.809 Y79.802 E486.55789
G0 F10500 X34.083 Y80.820
G1 F1380 X27.412 Y87.492 E486.83890
G0 F10500 X28.581 Y85.615
G1 F1380 X31.881 Y82.316 E486.97787
G0 F10500 X25.588 Y89.316
G1 F1380 X22.471 Y92.433 E487.10916
G0 F10500 X23.011 Y91.186
G1 F1380 X23.811 Y90.385 E487.14288
G0 F10500 X77.163 Y91.481
G1 F1380 X77.549 Y91.095 E487.15914
;LAYER:2
G0 F10500 X77.689 Y90.965 Z1.185
;TYPE:WALL-INNER
G1 F1440 X77.859 Y91.449 E487.17441
G1 X77.044 Y91.715 E487.19995
G1 X77.435 Y93.277 E487.24791
G1 X77.985 Y94.261 E487.28148
G1 X78.718 Y94.021 E487.30445
G1 X79.071 Y94.581 E487.32417
G1 X79.812 Y94.886 E487.34803
G1 X79.846 Y95.843 E487.37655
G1 X80.470 Y96.835 E487.41146
G1 X80.644 Y97.357 E487.42785
G1 X81.218 Y99.459 E487.49274
G1 X81.348 Y100.720 E487.53050
G1 X81.447 Y102.946 E487.59686
G1 X81.712 Y103.545 E487.61637
G1 X81.830 Y104.825 E487.65465
G1 X82.054 Y105.390 E487.67276
G1 X82.079 Y107.002 E487.72077
G1 X82.084 Y107.315 E487.73010
G1 X82.750 Y109.012 E487.78439
G1 X83.002 Y109.505 E487.80088
G1 X83.005 Y109.533 E487.80172
G1 X82.957 Y109.652 E487.80554
G1 X82.976 Y110.338 E487.82598
G1 X83.268 Y110.896 E487.84474
G1 X83.398 Y112.226 E487.88454
G1 X83.443 Y112.414 E487.89030
G1 X83.443 Y113.991 E487.93726
G1 X82.405 Y116.937 E488.03029
G1 X81.980 Y118.822 E488.08784
G1 X81.807 Y119.545 E488.10999
G1 X81.401 Y121.126 E488.15860
G1 X81.254 Y121.559 E488.17222
G1 X80.956 Y122.154 E488.19204
G1 X80.867 Y122.330 E488.19791
G1 X80.768 Y123.014 E488.21850
G1 X81.077 Y124.444 E488.26207
G1 X81.401 Y126.544 E488.32536
G1 X81.589 Y128.537 E488.38498
G1 X81.599 Y131.175 E488.46355
G1 X81.456 Y132.830 E488.51302
G1 X81.148 Y134.819 E488.57297
G1 X80.753 Y136.494 E488.62422
G1 X80.323 Y137.842 E488.66636
G1 X79.691 Y139.473 E488.71846
G1 X79.057 Y140.786 E488.76189
G1 X78.446 Y141.837 E488.79809
G1 X77.810 Y142.707 E488.83019
G1 X77.066 Y143.514 E488.86288
G1 X76.262 Y144.190 E488.89417
G1 X75.875 Y144.375 E488.90694
G1 X74.918 Y144.509 E488.93572
G1 X72.887 Y144.298 E488.99654
G1 X72.753 Y144.284 E489.00055
G1 X72.317 Y144.137 E489.01426
G1 X71.322 Y143.964 E489.04433
G1 X67.953 Y142.427 E489.15462
G1 X65.974 Y141.345 E489.22180
G1 X63.971 Y140.056 E489.29274
G1 X61.700 Y138.311 E489.37804
G1 X61.062 Y138.040 E489.39868
G1 X60.884 Y137.964 E489.40445
G1 X60.194 Y137.932 E489.42502
G1 X59.032 Y138.218 E489.46066
G1 X59.791 Y139.491 E489.50480
G1 X60.014 Y140.225 E489.52765
G1 X60.036 Y140.297 E489.52989
G1 X60.067 Y141.149 E489.55529
G1 X59.873 Y141.986 E489.58088
G1 X59.486 Y142.743 E489.60620
G1 X58.905 Y143.378 E489.63183
G1 X57.962 Y143.986 E489.66525
G1 X56.985 Y144.288 E489.69571
G1 X55.949 Y144.302 E489.72656
G1 X54.835 Y144.020 E489.76079
G1 X54.181 Y143.667 E489.78292
G1 X53.609 Y143.188 E489.80515
G1 X53.150 Y142.609 E489.82715
G1 X52.821 Y141.935 E489.84949
G1 X52.674 Y141.307 E489.86870
G1 X52.658 Y141.241 E489.87072
G1 X52.650 Y140.512 E489.89243
G1 X52.751 Y139.886 E489.91132
G1 X51.886 Y139.363 E489.94143
G1 X49.546 Y141.111 E490.02842
G1 X47.445 Y142.377 E490.10147
G1 X44.849 Y143.603 E490.18698
G1 X42.123 Y144.568 E490.27311
G1 X40.516 Y145.007 E490.32272
G1 X37.358 Y145.657 E490.41875
G1 X37.104 Y145.731 E490.42663
G1 X36.898 Y145.732 E490.43277
G1 X35.973 Y145.407 E490.46197
G1 X35.437 Y144.985 E490.48228
G1 X35.028 Y144.465 E490.50199
G1 X33.853 Y142.492 E490.57038
G1 X33.752 Y142.325 E490.57619
G1 X32.706 Y140.060 E490.65050
G1 X31.239 Y135.805 E490.78455
G1 X30.761 Y134.950 E490.81372
G1 X30.212 Y134.238 E490.84050
G1 X29.441 Y133.495 E490.87239
G1 X28.731 Y133.002 E490.89813
G1 X28.616 Y132.922 E490.90231
G1 X27.388 Y132.332 E490.94288
G1 X26.851 Y132.093 E490.96039
G1 X25.660 Y131.600 E490.99878
G1 X25.238 Y131.335 E491.01362
G1 X24.787 Y130.867 E491.03298
G1 X24.530 Y130.285 E491.05193
G1 X24.461 Y129.961 E491.06179
G1 X23.973 Y129.477 E491.08226
G1 X23.274 Y129.443 E491.10311
G1 X23.179 Y129.415 E491.10606
G1 X23.131 Y129.366 E491.10810
G1 X22.604 Y128.386 E491.14124
G1 X22.211 Y127.853 E491.16096
G1 X22.122 Y127.735 E491.16537
G1 X21.048 Y126.822 E491.20735
G1 X21.004 Y126.784 E491.20908
G1 X20.788 Y126.505 E491.21959
G1 X20.423 Y125.641 E491.24752
G1 X20.057 Y123.360 E491.31633
G1 X20.085 Y121.685 E491.36622
G1 X20.093 Y121.341 E491.37647
G1 X19.853 Y120.798 E491.39415
G1 X18.921 Y119.744 E491.43606
G1 X18.626 Y119.317 E491.45152
G1 X18.522 Y118.943 E491.46308
G1 X18.593 Y118.519 E491.47588
G1 X19.014 Y117.747 E491.50207
G1 X18.473 Y116.575 E491.54052
G1 X18.274 Y115.821 E491.56374
G1 X18.274 Y115.472 E491.57414
G1 X18.404 Y114.961 E491.58984
G1 X18.438 Y114.368 E491.60753
G1 X18.316 Y113.433 E491.63561
G1 X18.254 Y112.118 E491.67482
G1 X18.034 Y111.133 E491.70488
G1 X17.984 Y110.911 E491.71166
G1 X17.546 Y110.225 E491.73590
G1 X17.536 Y110.180 E491.73727
G1 X17.578 Y109.506 E491.75739
G1 X17.591 Y109.298 E491.76359
G1 X17.401 Y108.634 E491.78416
G1 X17.189 Y107.620 E491.81502
G1 X17.067 Y107.373 E491.82322
G1 X17.459 Y106.676 E491.84704
G1 X17.597 Y106.434 E491.85534
G1 X17.617 Y105.992 E491.86851
G1 X17.326 Y105.076 E491.89714
G1 X17.260 Y104.610 E491.91116
G1 X17.558 Y103.371 E491.94911
G1 X17.549 Y102.689 E491.96942
G1 X17.434 Y102.110 E491.98701
G1 X17.436 Y101.911 E491.99293
G1 X17.801 Y99.768 E492.05768
G1 X18.030 Y99.755 E492.06451
G1 X18.533 Y97.617 E492.12992
G1 X18.847 Y96.880 E492.15378
G1 X18.965 Y96.716 E492.15980
G1 X20.501 Y95.355 E492.22092
G1 X20.798 Y95.093 E492.23272
G1 X21.251 Y93.950 E492.26934
G1 X21.256 Y93.938 E492.26972
G1 X21.495 Y93.613 E492.28174
G1 X21.828 Y93.305 E492.29525
G1 X22.179 Y92.774 E492.31421
G1 X22.463 Y91.882 E492.34209
G1 X22.875 Y91.067 E492.36929
G1 X23.578 Y90.302 E492.40023
G1 X23.953 Y90.129 E492.41253
G1 X24.388 Y89.744 E492.42983
G1 X25.614 Y89.108 E492.47097
G1 X25.843 Y88.989 E492.47865
G1 X26.925 Y87.948 E492.52337
G1 X27.297 Y87.347 E492.54442
G1 X27.446 Y86.922 E492.55784
G1 X27.860 Y86.250 E492.58134
G1 X27.898 Y86.192 E492.58341
G1 X28.384 Y85.727 E492.60344
G1 X28.546 Y84.857 E492.62980
G1 X28.496 Y84.787 E492.63236
G1 X28.717 Y84.598 E492.64102
G1 X29.496 Y84.120 E492.66824
G1 X29.662 Y84.017 E492.67406
G1 X30.830 Y82.795 E492.72441
G1 X31.556 Y82.346 E492.74983
G1 X33.030 Y81.174 E492.80592
G1 X33.218 Y81.103 E492.81190
G1 X33.463 Y81.072 E492.81926
G1 X34.454 Y80.320 E492.85631
G1 X34.466 Y80.311 E492.85676
G1 X35.086 Y80.039 E492.87692
G1 X35.360 Y79.790 E492.88795
G1 X35.610 Y79.666 E492.89626
G1 X36.920 Y79.407 E492.93603
G1 X37.880 Y78.755 E492.97059
G1 X39.508 Y78.406 E493.02018
G1 X40.456 Y77.957 E493.05142
G1 X41.033 Y77.867 E493.06882
G1 X43.261 Y77.710 E493.13534
G1 X44.668 Y77.468 E493.17786
G1 X44.761 Y77.452 E493.18067
G1 X46.266 Y77.393 E493.22553
G1 X46.720 Y76.825 E493.24719
G1 X46.880 Y76.733 E493.25268
G1 X47.029 Y76.733 E493.25712
G1 X47.049 Y77.107 E493.26828
G1 X48.002 Y77.575 E493.29990
G1 X48.360 Y77.621 E493.31065
G1 X48.974 Y77.583 E493.32897
G1 X49.876 Y77.797 E493.35658
G1 X53.123 Y78.342 E493.45464
G1 X54.558 Y78.675 E493.49851
G1 X57.129 Y79.381 E493.57792
G1 X57.708 Y79.011 E493.59839
G1 X57.870 Y78.985 E493.60327
G1 X58.225 Y79.029 E493.61393
G1 X59.395 Y79.420 E493.65067
G1 X59.351 Y79.674 E493.65835
G1 X59.810 Y80.059 E493.67619
G1 X61.286 Y80.810 E493.72551
G1 X61.594 Y80.969 E493.73583
G1 X62.272 Y80.959 E493.75603
G1 X62.615 Y80.755 E493.76792
G1 X62.735 Y80.775 E493.77154
G1 X63.883 Y81.318 E493.80936
G1 X65.358 Y81.606 E493.85412
G1 X65.816 Y81.747 E493.86840
G1 X66.652 Y82.150 E493.89604
G1 X68.233 Y82.684 E493.94574
G1 X68.356 Y82.742 E493.94979
G1 X68.608 Y83.019 E493.96094
G1 X69.554 Y83.355 E493.99084
G1 X70.209 Y83.745 E494.01354
G1 X70.364 Y83.838 E494.01893
G1 X70.748 Y83.947 E494.03082
G1 X70.916 Y84.045 E494.03661
G1 X71.820 Y85.017 E494.07614
G1 X73.492 Y85.653 E494.12942
G1 X73.746 Y85.336 E494.14152
G1 X74.208 Y85.612 E494.15755
G1 X74.873 Y86.198 E494.18395
G1 X75.765 Y87.669 E494.23518
G1 X77.003 Y89.410 E494.29881
G1 X77.673 Y90.583 E494.33904
G1 X77.689 Y90.965 E494.35043
G0 F10500 X58.201 Y138.412
G1 F1440 X57.897 Y138.426 E494.35950
G1 X56.649 Y138.627 E494.39714
G1 X55.289 Y138.730 E494.43777
G1 X53.947 Y138.893 E494.47803
G1 X53.406 Y139.701 E494.50699
G1 X53.192 Y140.803 E494.54042
G1 X53.259 Y141.462 E494.56015
G1 X53.465 Y142.084 E494.57967
G1 X53.975 Y142.782 E494.60541
G1 X54.151 Y143.022 E494.61428
G1 X55.166 Y143.658 E494.64995
G1 X56.362 Y143.887 E494.68622
G1 X57.478 Y143.683 E494.72001
G1 X58.485 Y143.100 E494.75466
G1 X59.040 Y142.393 E494.78143
G1 X59.210 Y142.175 E494.78967
G1 X59.440 Y141.532 E494.81001
G1 X59.525 Y140.823 E494.83127
G1 X59.353 Y139.960 E494.85748
G1 X59.291 Y139.654 E494.86678
G1 X58.779 Y138.918 E494.89349
G1 X58.606 Y138.673 E494.90242
G1 X58.201 Y138.412 E494.91677
G0 F10500 X57.948 Y138.924
;TYPE:WALL-OUTER
G1 F1320 X56.694 Y139.125 E494.95459
G1 X55.338 Y139.228 E494.99510
G1 X54.235 Y139.362 E495.02819
G1 X53.877 Y139.896 E495.04734
G1 X53.697 Y140.826 E495.07555
G1 X53.751 Y141.357 E495.09145
G1 X53.915 Y141.853 E495.10700
G1 X54.498 Y142.649 E495.13639
G1 X55.352 Y143.185 E495.16642
G1 X56.364 Y143.378 E495.19710
G1 X57.303 Y143.207 E495.22553
G1 X58.151 Y142.715 E495.25473
G1 X58.646 Y142.085 E495.27859
G1 X58.766 Y141.931 E495.28441
G1 X58.950 Y141.417 E495.30067
G1 X59.019 Y140.842 E495.31792
G1 X58.822 Y139.855 E495.34789
G1 X58.254 Y139.040 E495.37748
G1 X58.064 Y138.919 E495.38419
G1 X57.948 Y138.924 E495.38765
G0 F10500 X57.895 Y138.579
G0 X60.258 Y138.085
G0 X60.243 Y138.435
G1 F1320 X59.807 Y138.542 E495.40102
G1 X60.251 Y139.287 E495.42685
G1 X60.492 Y140.078 E495.45147
G1 X60.534 Y140.215 E495.45574
G1 X60.569 Y141.196 E495.48498
G1 X60.346 Y142.157 E495.51436
G1 X59.900 Y143.031 E495.54358
G1 X59.230 Y143.764 E495.57316
G1 X58.176 Y144.443 E495.61050
G1 X57.062 Y144.787 E495.64523
G1 X55.889 Y144.803 E495.68017
G1 X54.654 Y144.490 E495.71811
G1 X53.899 Y144.082 E495.74367
G1 X53.247 Y143.537 E495.76898
G1 X52.726 Y142.880 E495.79396
G1 X52.346 Y142.101 E495.81977
G1 X52.187 Y141.422 E495.84054
G1 X52.159 Y141.304 E495.84415
G1 X52.149 Y140.478 E495.86875
G1 X52.204 Y140.139 E495.87898
G1 X51.915 Y139.965 E495.88903
G1 X49.829 Y141.524 E495.96659
G1 X47.682 Y142.818 E496.04125
G1 X45.039 Y144.066 E496.12831
G1 X42.259 Y145.049 E496.21613
G1 X40.638 Y145.492 E496.26618
G1 X37.478 Y146.143 E496.36227
G1 X37.179 Y146.230 E496.37154
G1 X36.813 Y146.233 E496.38244
G1 X35.730 Y145.851 E496.41665
G1 X35.080 Y145.341 E496.44125
G1 X34.616 Y144.750 E496.46363
G1 X33.308 Y142.556 E496.53971
G1 X32.241 Y140.246 E496.61549
G1 X30.781 Y136.010 E496.74894
G1 X30.342 Y135.226 E496.77570
G1 X29.839 Y134.573 E496.80025
G1 X29.123 Y133.883 E496.82987
G1 X28.447 Y133.413 E496.85439
G1 X28.363 Y133.355 E496.85743
G1 X27.178 Y132.786 E496.89658
G1 X26.654 Y132.552 E496.91367
G1 X25.431 Y132.046 E496.95309
G1 X24.919 Y131.725 E496.97109
G1 X24.366 Y131.151 E496.99483
G1 X24.052 Y130.438 E497.01803
G1 X24.003 Y130.211 E497.02495
G1 X23.757 Y129.967 E497.03527
G1 X23.191 Y129.939 E497.05214
G1 X22.911 Y129.857 E497.06083
G1 X22.722 Y129.663 E497.06890
G1 X22.181 Y128.654 E497.10300
G1 X21.810 Y128.152 E497.12159
G1 X21.756 Y128.080 E497.12427
G1 X20.641 Y127.132 E497.16786
G1 X20.350 Y126.757 E497.18200
G1 X19.939 Y125.781 E497.21354
G1 X19.556 Y123.397 E497.28545
G1 X19.585 Y121.674 E497.33678
G1 X19.590 Y121.441 E497.34372
G1 X19.427 Y121.071 E497.35576
G1 X18.546 Y120.075 E497.39536
G1 X18.446 Y119.951 E497.40011
G1 X18.166 Y119.528 E497.41522
G1 X18.010 Y118.970 E497.43247
G1 X18.109 Y118.380 E497.45029
G1 X18.114 Y118.353 E497.45111
G1 X18.455 Y117.727 E497.47234
G1 X18.002 Y116.745 E497.50455
G1 X17.788 Y115.941 E497.52933
G1 X17.774 Y115.889 E497.53093
G1 X17.774 Y115.408 E497.54526
G1 X17.907 Y114.884 E497.56136
G1 X17.936 Y114.386 E497.57622
G1 X17.819 Y113.486 E497.60325
G1 X17.757 Y112.185 E497.64204
G1 X17.515 Y111.107 E497.67494
G1 X17.076 Y110.417 E497.69930
G1 X17.033 Y110.219 E497.70534
G1 X17.086 Y109.353 E497.73118
G1 X16.917 Y108.759 E497.74957
G1 X16.712 Y107.785 E497.77921
G1 X16.503 Y107.361 E497.79329
G1 X16.489 Y107.352 E497.79379
G1 X16.532 Y107.304 E497.79571
G1 X17.024 Y106.429 E497.82561
G1 X17.103 Y106.291 E497.83034
G1 X17.114 Y106.058 E497.83729
G1 X16.838 Y105.192 E497.86436
G1 X16.752 Y104.586 E497.88259
G1 X17.057 Y103.315 E497.92152
G1 X17.050 Y102.741 E497.93862
G1 X16.940 Y102.185 E497.95550
G1 X16.934 Y102.156 E497.95638
G1 X16.936 Y101.866 E497.96502
G1 X17.375 Y99.292 E498.04279
G1 X17.629 Y99.278 E498.05036
G1 X18.056 Y97.462 E498.10592
G1 X18.408 Y96.636 E498.13267
G1 X18.592 Y96.380 E498.14205
G1 X20.377 Y94.798 E498.21309
G1 X20.787 Y93.763 E498.24625
G1 X20.817 Y93.690 E498.24860
G1 X21.119 Y93.280 E498.26377
G1 X21.444 Y92.979 E498.27696
G1 X21.724 Y92.556 E498.29207
G1 X21.997 Y91.697 E498.31891
G1 X22.461 Y90.779 E498.34955
G1 X23.279 Y89.888 E498.38557
G1 X23.677 Y89.706 E498.39861
G1 X24.086 Y89.344 E498.41487
G1 X25.547 Y88.579 E498.46399
G1 X26.533 Y87.631 E498.50473
G1 X26.843 Y87.130 E498.52228
G1 X26.991 Y86.707 E498.53562
G1 X27.441 Y85.978 E498.56114
G1 X27.512 Y85.869 E498.56501
G1 X27.922 Y85.477 E498.58191
G1 X28.015 Y84.976 E498.59708
G1 X27.857 Y84.757 E498.60513
G1 X28.070 Y84.493 E498.61523
G1 X28.420 Y84.194 E498.62894
G1 X29.344 Y83.626 E498.66124
G1 X30.514 Y82.403 E498.71165
G1 X31.275 Y81.931 E498.73832
G1 X32.777 Y80.736 E498.79549
G1 X33.096 Y80.614 E498.80566
G1 X33.268 Y80.593 E498.81082
G1 X34.211 Y79.876 E498.84610
G1 X34.718 Y79.656 E498.86256
G1 X34.809 Y79.615 E498.86554
G1 X35.074 Y79.375 E498.87619
G1 X35.450 Y79.187 E498.88871
G1 X36.723 Y78.936 E498.92735
G1 X37.680 Y78.286 E498.96181
G1 X39.347 Y77.929 E499.01258
G1 X40.307 Y77.474 E499.04422
G1 X40.978 Y77.369 E499.06445
G1 X43.201 Y77.213 E499.13082
G1 X44.699 Y76.955 E499.17609
G1 X46.018 Y76.902 E499.21541
G1 X46.388 Y76.439 E499.23306
G1 X46.747 Y76.233 E499.24539
G1 X47.192 Y76.233 E499.25864
G1 X47.458 Y76.345 E499.26724
G1 X47.512 Y76.390 E499.26933
G1 X47.533 Y76.788 E499.28120
G1 X48.148 Y77.090 E499.30161
G1 X48.377 Y77.119 E499.30848
G1 X48.996 Y77.081 E499.32695
G1 X49.018 Y77.080 E499.32761
G1 X49.975 Y77.306 E499.35690
G1 X53.221 Y77.852 E499.45493
G1 X54.677 Y78.189 E499.49944
G1 X57.047 Y78.840 E499.57264
G1 X57.528 Y78.533 E499.58964
G1 X57.865 Y78.480 E499.59980
G1 X58.331 Y78.537 E499.61378
G1 X59.749 Y79.010 E499.65830
G1 X59.853 Y79.066 E499.66182
G1 X59.945 Y79.179 E499.66616
G1 X59.893 Y79.476 E499.67514
G1 X60.087 Y79.639 E499.68269
G1 X61.516 Y80.366 E499.73044
G1 X61.712 Y80.467 E499.73701
G1 X62.131 Y80.461 E499.74949
G1 X62.347 Y80.332 E499.75698
G1 X62.367 Y80.204 E499.76084
G1 X62.890 Y80.295 E499.77665
G1 X64.040 Y80.839 E499.81454
G1 X65.478 Y81.120 E499.85818
G1 X66.002 Y81.281 E499.87450
G1 X66.841 Y81.686 E499.90225
G1 X68.416 Y82.217 E499.95175
G1 X68.660 Y82.334 E499.95981
G1 X68.893 Y82.590 E499.97012
G1 X69.768 Y82.901 E499.99778
G1 X70.464 Y83.315 E500.02190
G1 X70.565 Y83.375 E500.02540
G1 X70.944 Y83.483 E500.03714
G1 X71.232 Y83.650 E500.04705
G1 X72.107 Y84.591 E500.08532
G1 X73.329 Y85.056 E500.12426
G1 X73.508 Y84.833 E500.13278
G1 X73.621 Y84.769 E500.13665
G1 X73.835 Y84.808 E500.14313
G1 X74.506 Y85.208 E500.16639
G1 X75.259 Y85.872 E500.19629
G1 X76.183 Y87.394 E500.24932
G1 X77.425 Y89.142 E500.31319
G1 X78.168 Y90.440 E500.35773
G1 X78.186 Y90.870 E500.37055
G1 X78.443 Y91.601 E500.39363
G1 X78.692 Y92.836 E500.43115
G1 X78.934 Y93.425 E500.45012
G1 X79.409 Y94.180 E500.47668
G1 X80.203 Y94.506 E500.50225
G1 X80.305 Y94.686 E500.50841
G1 X80.341 Y95.691 E500.53836
G1 X80.892 Y96.567 E500.56918
G1 X80.930 Y96.627 E500.57130
G1 X81.120 Y97.204 E500.58939
G1 X81.711 Y99.366 E500.65614
G1 X81.847 Y100.687 E500.69570
G1 X81.942 Y102.829 E500.75955
G1 X82.203 Y103.417 E500.77871
G1 X82.321 Y104.708 E500.81733
G1 X82.553 Y105.291 E500.83601
G1 X82.583 Y107.216 E500.89335
G1 X83.207 Y108.807 E500.94425
G1 X83.490 Y109.362 E500.96281
G1 X83.515 Y109.605 E500.97008
G1 X83.460 Y109.742 E500.97448
G1 X83.473 Y110.209 E500.98839
G1 X83.753 Y110.744 E501.00638
G1 X83.892 Y112.143 E501.04825
G1 X83.943 Y112.355 E501.05474
G1 X83.943 Y114.082 E501.10618
G1 X82.886 Y117.076 E501.20075
G1 X82.469 Y118.929 E501.25731
G1 X82.291 Y119.669 E501.27998
G1 X81.886 Y121.252 E501.32865
G1 X81.715 Y121.754 E501.34444
G1 X81.402 Y122.381 E501.36532
G1 X81.350 Y122.483 E501.36873
G1 X81.276 Y122.997 E501.38419
G1 X81.566 Y124.337 E501.42503
G1 X81.595 Y124.469 E501.42905
G1 X81.897 Y126.473 E501.48941
G1 X82.089 Y128.510 E501.55035
G1 X82.099 Y131.192 E501.63023
G1 X81.953 Y132.892 E501.68105
G1 X81.638 Y134.920 E501.74217
G1 X81.235 Y136.630 E501.79450
G1 X80.799 Y137.998 E501.83726
G1 X80.152 Y139.669 E501.89063
G1 X79.498 Y141.021 E501.93536
G1 X78.862 Y142.116 E501.97307
G1 X78.201 Y143.021 E502.00645
G1 X77.411 Y143.877 E502.04114
G1 X76.584 Y144.572 E502.07332
G1 X76.522 Y144.624 E502.07573
G1 X76.022 Y144.859 E502.09218
G1 X74.928 Y145.013 E502.12509
G1 X72.645 Y144.775 E502.19345
G1 X72.194 Y144.623 E502.20762
G1 X71.174 Y144.446 E502.23846
G1 X67.723 Y142.872 E502.35143
G1 X65.714 Y141.773 E502.41963
G1 X63.683 Y140.466 E502.49156
G1 X61.446 Y138.746 E502.57560
G1 X60.867 Y138.501 E502.59433
G1 X60.770 Y138.459 E502.59748
G1 X60.243 Y138.435 E502.61319
G0 F10500 X60.258 Y138.085
G0 X78.328 Y93.990
G0 X78.220 Y93.658
G1 F1320 X78.612 Y93.529 E502.62548
G1 X78.552 Y93.051 E502.63983
G1 X78.085 Y91.901 E502.67680
G1 X77.642 Y92.046 E502.69068
G1 X77.904 Y93.091 E502.72277
G1 X78.220 Y93.658 E502.74210
G0 F10500 X78.328 Y93.990
G0 X59.236 Y138.303
G0 X59.389 Y141.520
G0 X58.449 Y143.058
G0 X57.867 Y143.657
;TYPE:FILL
G1 F1620 X57.762 Y143.762 E502.74652
G0 F10500 X58.660 Y143.159
;TYPE:SKIN
G1 F1920 X58.933 Y143.079 E502.75077
G1 X59.125 Y142.564 E502.75647
G1 X59.532 Y142.264 E502.76201
G1 X59.655 Y141.679 E502.76839
G1 X59.761 Y141.079 E502.77543
G1 X59.717 Y140.327 E502.78458
G1 X59.486 Y139.743 E502.80329
G0 F10500 X59.063 Y138.612
G1 F1920 X18.589 Y98.139 E504.50803
G0 F10500 X18.738 Y97.580
G1 F1920 X59.162 Y138.004 E506.21069
G0 F10500 X59.729 Y137.864
G1 F1920 X18.949 Y97.085 E507.92833
G0 F10500 X19.260 Y96.688
G1 F1920 X60.333 Y137.762 E509.65835
G0 F10500 X61.175 Y137.896
G1 F1920 X19.634 Y96.356 E511.40804
G0 F10500 X18.454 Y98.711
G1 F1920 X57.989 Y138.245 E513.07323
G0 F10500 X57.368 Y138.332
G1 F1920 X18.320 Y99.284 E514.71794
G0 F10500 X18.186 Y99.856
G1 F1920 X56.760 Y138.431 E516.34270
G0 F10500 X56.113 Y138.491
G1 F1920 X17.892 Y100.270 E517.95257
G0 F10500 X17.789 Y100.874
G1 F1920 X55.456 Y138.541 E519.53910
G0 F10500 X54.817 Y138.609
G1 F1920 X17.686 Y101.478 E521.10306
G0 F10500 X17.612 Y102.111
G1 F1920 X54.187 Y138.686 E522.64360
G0 F10500 X53.716 Y138.923
G1 F1920 X17.727 Y102.933 E524.15948
G0 F10500 X17.682 Y103.596
G1 F1920 X53.432 Y139.345 E525.66525
G0 F10500 X53.204 Y139.824
G1 F1920 X17.545 Y104.166 E527.16719
G0 F10500 X17.462 Y104.790
G1 F1920 X51.845 Y139.172 E528.61539
G0 F10500 X51.440 Y139.475
G1 F1920 X17.727 Y105.762 E530.03538
G0 F10500 X17.758 Y106.500
G1 F1920 X51.036 Y139.778 E531.43705
G0 F10500 X50.630 Y140.079
G1 F1920 X17.503 Y106.952 E532.83236
G0 F10500 X17.307 Y107.463
G1 F1920 X50.226 Y140.382 E534.21891
G0 F10500 X49.822 Y140.685
G1 F1920 X17.529 Y108.393 E535.57907
G0 F10500 X17.763 Y109.334
G1 F1920 X49.414 Y140.984 E536.91220
G0 F10500 X48.972 Y141.250
G1 F1920 X17.722 Y109.999 E538.22847
G0 F10500 X18.231 Y111.215
G1 F1920 X48.531 Y141.516 E539.50473
G0 F10500 X48.090 Y141.781
G1 F1920 X18.428 Y112.120 E540.75407
G0 F10500 X18.463 Y112.862
G1 F1920 X47.649 Y142.047 E541.98337
G0 F10500 X47.194 Y142.300
G1 F1920 X18.517 Y113.622 E543.19127
G0 F10500 X18.610 Y114.423
G1 F1920 X46.714 Y142.527 E544.37501
G0 F10500 X46.234 Y142.754
G1 F1920 X18.554 Y115.074 E545.54089
G0 F10500 X18.449 Y115.676
G1 F1920 X45.753 Y142.980 E546.69094
G0 F10500 X45.273 Y143.207
G1 F1920 X18.688 Y116.623 E547.81068
G0 F10500 X19.174 Y117.816
G1 F1920 X44.793 Y143.434 E548.88973
G0 F10500 X44.271 Y143.620
G1 F1920 X18.925 Y118.273 E549.95733
G0 F10500 X18.725 Y118.781
G1 F1920 X43.749 Y143.805 E551.01134
G0 F10500 X43.226 Y143.989
G1 F1920 X20.052 Y120.814 E551.98745
G0 F10500 X20.260 Y121.730
G1 F1920 X42.705 Y144.174 E552.93281
G0 F10500 X42.182 Y144.359
G1 F1920 X20.248 Y122.424 E553.85670
G0 F10500 X20.235 Y123.119
G1 F1920 X41.634 Y144.518 E554.75802
G0 F10500 X41.079 Y144.670
G1 F1920 X20.322 Y123.914 E555.63229
G0 F10500 X20.458 Y124.756
G1 F1920 X28.255 Y132.554 E555.96072
G0 F10500 X26.931 Y131.936
G1 F1920 X20.595 Y125.601 E556.22757
G0 F10500 X22.953 Y128.665
G1 F1920 X23.568 Y129.281 E556.25350
G0 F10500 X24.839 Y130.552
G1 F1920 X25.713 Y131.426 E556.29031
G0 F10500 X29.408 Y133.535
G0 X31.355 Y135.654
G1 F1920 X40.523 Y144.821 E556.67645
G0 F10500 X51.892 Y139.465
G0 X52.658 Y139.929
G0 X52.941 Y141.683
G1 F1920 X53.147 Y141.535 E556.68945
G1 X52.958 Y140.640 E556.69855
G1 X52.876 Y140.204 E556.71177
G0 F10500 X53.987 Y138.957
G0 X58.185 Y138.473
G0 X60.871 Y138.017
G0 X63.316 Y139.330
G1 F1920 X20.010 Y96.024 E558.53582
G0 F10500 X20.385 Y95.692
G1 F1920 X65.568 Y140.875 E560.43893
G0 F10500 X67.235 Y141.835
G1 F1920 X20.760 Y95.360 E562.39646
G0 F10500 X21.046 Y94.938
G1 F1920 X68.667 Y142.559 E564.40226
G0 F10500 X69.967 Y143.153
G1 F1920 X21.247 Y94.432 E566.45437
G0 F10500 X21.467 Y93.945
G1 F1920 X71.267 Y143.745 E568.55195
G0 F10500 X72.159 Y143.930
G1 F1920 X21.799 Y93.570 E570.67311
G0 F10500 X22.118 Y93.182
G1 F1920 X73.076 Y144.140 E572.81947
G0 F10500 X73.865 Y144.222
G1 F1920 X22.375 Y92.732 E574.98823
G0 F10500 X22.546 Y92.196
G1 F1920 X74.654 Y144.304 E577.18302
G0 F10500 X75.330 Y144.273
G1 F1920 X22.752 Y91.695 E579.39761
G0 F10500 X22.990 Y91.225
G1 F1920 X75.921 Y144.157 E581.62709
G0 F10500 X76.354 Y143.882
G1 F1920 X23.316 Y90.844 E583.86105
G0 F10500 X23.654 Y90.475
G1 F1920 X76.738 Y143.559 E586.09695
G0 F10500 X77.102 Y143.216
G1 F1920 X24.109 Y90.223 E588.32902
G0 F10500 X24.484 Y89.892
G1 F1920 X77.441 Y142.849 E590.55957
G0 F10500 X77.767 Y142.467
G1 F1920 X24.949 Y89.649 E592.78427
G0 F10500 X25.414 Y89.407
G1 F1920 X78.066 Y142.059 E595.00198
G0 F10500 X78.356 Y141.642
G1 F1920 X25.879 Y89.165 E597.21231
G0 F10500 X26.255 Y88.834
G1 F1920 X78.616 Y141.195 E599.41776
G0 F10500 X78.876 Y140.748
G1 F1920 X26.615 Y88.487 E601.61900
G0 F10500 X26.976 Y88.140
G1 F1920 X79.109 Y140.274 E603.81486
G0 F10500 X79.340 Y139.798
G1 F1920 X27.267 Y87.725 E606.00818
G0 F10500 X27.511 Y87.261
G1 F1920 X79.565 Y139.316 E608.20072
G0 F10500 X79.763 Y138.806
G1 F1920 X27.737 Y86.781 E610.39204
G0 F10500 X28.007 Y86.343
G1 F1920 X79.960 Y138.296 E612.58030
G0 F10500 X80.156 Y137.786
G1 F1920 X28.361 Y85.990 E614.76193
G0 F10500 X28.598 Y85.521
G1 F1920 X80.328 Y137.250 E616.94078
G0 F10500 X80.499 Y136.714
G1 F1920 X28.709 Y84.924 E619.12218
G0 F10500 X29.075 Y84.583
G1 F1920 X80.651 Y136.159 E621.29456
G0 F10500 X80.786 Y135.587
G1 F1920 X29.513 Y84.313 E623.45421
G0 F10500 X29.912 Y84.006
G1 F1920 X80.922 Y135.015 E625.60273
G0 F10500 X81.033 Y134.419
G1 F1920 X30.258 Y83.645 E627.74135
G0 F10500 X30.603 Y83.283
G1 F1920 X81.128 Y133.807 E629.86945
G0 F10500 X81.223 Y133.195
G1 F1920 X30.952 Y82.924 E631.98687
G0 F10500 X31.389 Y82.654
G1 F1920 X81.303 Y132.569 E634.08927
G0 F10500 X81.359 Y131.917
G1 F1920 X31.809 Y82.367 E636.17632
G0 F10500 X32.203 Y82.054
G1 F1920 X81.415 Y131.266 E638.24913
G0 F10500 X81.421 Y130.565
G1 F1920 X32.597 Y81.741 E640.30560
G0 F10500 X32.991 Y81.428
G1 F1920 X81.419 Y129.856 E642.34539
G0 F10500 X81.416 Y129.146
G1 F1920 X33.514 Y81.243 E644.36305
G0 F10500 X33.922 Y80.944
G1 F1920 X81.402 Y128.425 E646.36293
G0 F10500 X81.329 Y127.644
G1 F1920 X34.323 Y80.639 E648.34280
G0 F10500 X34.763 Y80.371
G1 F1920 X81.255 Y126.863 E650.30105
G0 F10500 X81.148 Y126.049
G1 F1920 X35.237 Y80.139 E652.23480
G0 F10500 X35.647 Y79.841
G1 F1920 X81.018 Y125.213 E654.14585
G0 F10500 X80.883 Y124.370
G1 F1920 X36.232 Y79.719 E656.02655
G0 F10500 X36.823 Y79.603
G1 F1920 X80.686 Y123.466 E657.87407
G0 F10500 X80.634 Y122.707
G1 F1920 X37.292 Y79.365 E659.69963
G0 F10500 X37.714 Y79.079
G1 F1920 X80.768 Y122.134 E661.51309
G0 F10500 X81.004 Y121.663
G1 F1920 X38.204 Y78.863 E663.31583
G0 F10500 X38.787 Y78.739
G1 F1920 X81.205 Y121.157 E665.10248
G0 F10500 X81.356 Y120.600
G1 F1920 X39.369 Y78.614 E666.87095
G0 F10500 X39.883 Y78.420
G1 F1920 X81.500 Y120.037 E668.62386
G0 F10500 X81.643 Y119.474
G1 F1920 X40.364 Y78.194 E670.36256
G0 F10500 X40.936 Y78.059
G1 F1920 X81.775 Y118.898 E672.08270
G0 F10500 X81.907 Y118.323
G1 F1920 X41.587 Y78.003 E673.78098
G0 F10500 X42.247 Y77.956
G1 F1920 X82.039 Y117.748 E675.45702
G0 F10500 X82.171 Y117.173
G1 F1920 X42.908 Y77.910 E677.11078
G0 F10500 X43.544 Y77.839
G1 F1920 X82.329 Y116.624 E678.74441
G0 F10500 X82.513 Y116.101
G1 F1920 X44.147 Y77.735 E680.36039
G0 F10500 X44.749 Y77.630
G1 F1920 X82.698 Y115.578 E681.95878
G0 F10500 X82.882 Y115.055
G1 F1920 X45.427 Y77.600 E683.53639
G0 F10500 X46.106 Y77.573
G1 F1920 X83.066 Y114.532 E685.09312
G0 F10500 X83.250 Y114.009
G1 F1920 X46.553 Y77.312 E686.63880
G0 F10500 X47.444 Y77.496
G1 F1920 X83.268 Y113.320 E688.14771
G0 F10500 X83.268 Y112.613
G1 F1920 X48.446 Y77.790 E689.61444
G0 F10500 X49.170 Y77.808
G1 F1920 X83.183 Y111.821 E691.04707
G0 F10500 X83.106 Y111.036
G1 F1920 X50.075 Y78.006 E692.43832
G0 F10500 X50.925 Y78.149
G1 F1920 X82.793 Y110.016 E693.78058
G0 F10500 X82.616 Y109.132
G1 F1920 X51.775 Y78.292 E695.07958
G0 F10500 X52.625 Y78.435
G1 F1920 X82.149 Y107.958 E696.32311
G0 F10500 X81.904 Y107.007
G1 F1920 X53.508 Y78.610 E697.51917
G0 F10500 X54.429 Y78.824
G1 F1920 X81.893 Y106.288 E698.67596
G0 F10500 X81.882 Y105.570
G1 F1920 X55.398 Y79.087 E699.79145
G0 F10500 X56.374 Y79.355
G1 F1920 X81.635 Y104.616 E700.85544
G0 F10500 X81.564 Y103.838
G1 F1920 X57.243 Y79.516 E701.87986
G0 F10500 X57.673 Y79.240
G1 F1920 X81.266 Y102.833 E702.87360
G0 F10500 X81.233 Y102.093
G1 F1920 X58.416 Y79.276 E703.83466
G0 F10500 X60.408 Y80.560
G1 F1920 X81.201 Y101.353 E704.71046
G0 F10500 X81.160 Y100.605
G1 F1920 X61.696 Y81.141 E705.53028
G0 F10500 X62.366 Y81.105
G1 F1920 X81.078 Y99.817 E706.31843
G0 F10500 X80.890 Y98.922
G1 F1920 X63.118 Y81.149 E707.06701
G0 F10500 X64.242 Y81.566
G1 F1920 X80.625 Y97.949 E707.75707
G0 F10500 X80.320 Y96.937
G1 F1920 X65.120 Y81.737 E708.39729
G0 F10500 X66.231 Y82.141
G1 F1920 X77.218 Y93.128 E708.86006
G0 F10500 X76.982 Y92.184
G1 F1920 X67.375 Y82.578 E709.26469
G0 F10500 X68.763 Y83.258
G1 F1920 X77.035 Y91.531 E709.61313
G0 F10500 X77.568 Y91.357
G1 F1920 X70.089 Y83.878 E709.92815
G0 F10500 X72.307 Y85.388
G1 F1920 X77.432 Y90.513 E710.14401
G0 F10500 X76.179 Y88.553
G1 F1920 X73.448 Y85.822 E710.25904
G0 F10500 X74.058 Y85.726
G1 F1920 X74.880 Y86.547 E710.29364
G0 F10500 X78.030 Y94.145
G0 X78.400 Y94.310
G1 F1920 X79.661 Y95.571 E710.34676
G0 F10500 X31.752 Y136.757
G1 F1920 X39.940 Y144.945 E710.69163
G0 F10500 X39.353 Y145.065
G1 F1920 X32.123 Y137.836 E710.99614
G0 F10500 X32.495 Y138.915
G1 F1920 X38.767 Y145.186 E711.26030
G0 F10500 X38.180 Y145.307
G1 F1920 X32.869 Y139.995 E711.48402
G0 F10500 X33.475 Y141.308
G1 F1920 X37.594 Y145.427 E711.65751
G0 F10500 X37.014 Y145.555
G1 F1920 X34.209 Y142.750 E711.77566
G0 F10500 X35.383 Y144.631
G1 F1920 X35.794 Y145.042 E711.79297
;LAYER:3
G0 F10500 X35.437 Y144.985 Z1.565
;TYPE:WALL-INNER
G1 F1740 X35.028 Y144.464 E711.81270
G1 X33.752 Y142.325 E711.88688
G1 X32.829 Y140.325 E711.95248
G1 X32.707 Y140.063 E711.96109
G1 X31.239 Y135.805 E712.09523
G1 X30.761 Y134.950 E712.12441
G1 X30.264 Y134.304 E712.14868
G1 X30.158 Y134.170 E712.15377
G1 X29.437 Y133.492 E712.18325
G1 X28.759 Y133.021 E712.20783
G1 X28.616 Y132.921 E712.21303
G1 X27.433 Y132.353 E712.25212
G1 X26.803 Y132.073 E712.27265
G1 X25.660 Y131.600 E712.30949
G1 X25.238 Y131.335 E712.32433
G1 X24.787 Y130.868 E712.34367
G1 X24.530 Y130.285 E712.36264
G1 X24.461 Y129.961 E712.37251
G1 X23.973 Y129.477 E712.39298
G1 X23.274 Y129.443 E712.41382
G1 X23.179 Y129.415 E712.41677
G1 X23.131 Y129.366 E712.41882
G1 X22.604 Y128.386 E712.45196
G1 X22.226 Y127.873 E712.47094
G1 X22.123 Y127.736 E712.47604
G1 X21.003 Y126.784 E712.51982
G1 X20.788 Y126.505 E712.53031
G1 X20.423 Y125.641 E712.55825
G1 X20.096 Y123.605 E712.61966
G1 X20.057 Y123.364 E712.62693
G1 X20.084 Y121.750 E712.67501
G1 X20.092 Y121.340 E712.68722
G1 X19.853 Y120.799 E712.70484
G1 X18.953 Y119.781 E712.74531
G1 X18.868 Y119.685 E712.74913
G1 X18.628 Y119.321 E712.76211
G1 X18.522 Y118.941 E712.77386
G1 X18.593 Y118.519 E712.78661
G1 X19.014 Y117.745 E712.81285
G1 X18.473 Y116.574 E712.85127
G1 X18.280 Y115.844 E712.87376
G1 X18.274 Y115.472 E712.88484
G1 X18.404 Y114.961 E712.90054
G1 X18.438 Y114.368 E712.91823
G1 X18.317 Y113.440 E712.94611
G1 X18.255 Y112.120 E712.98546
G1 X17.984 Y110.912 E713.02234
G1 X17.546 Y110.225 E713.04660
G1 X17.536 Y110.180 E713.04797
G1 X17.576 Y109.535 E713.06722
G1 X17.591 Y109.299 E713.07426
G1 X17.407 Y108.658 E713.09413
G1 X17.188 Y107.620 E713.12572
G1 X17.066 Y107.374 E713.13390
G1 X17.597 Y106.432 E713.16611
G1 X17.617 Y105.992 E713.17923
G1 X17.326 Y105.076 E713.20785
G1 X17.260 Y104.610 E713.22187
G1 X17.558 Y103.371 E713.25982
G1 X17.549 Y102.689 E713.28014
G1 X17.435 Y102.109 E713.29774
G1 X17.436 Y101.911 E713.30364
G1 X17.801 Y99.768 E713.36838
G1 X18.030 Y99.755 E713.37521
G1 X18.533 Y97.617 E713.44063
G1 X18.847 Y96.880 E713.46449
G1 X18.965 Y96.716 E713.47051
G1 X20.798 Y95.093 E713.54342
G1 X21.237 Y93.986 E713.57889
G1 X21.257 Y93.937 E713.58047
G1 X21.495 Y93.613 E713.59244
G1 X21.828 Y93.305 E713.60595
G1 X22.179 Y92.774 E713.62491
G1 X22.463 Y91.882 E713.65279
G1 X22.875 Y91.067 E713.67999
G1 X23.578 Y90.302 E713.71093
G1 X23.953 Y90.129 E713.72323
G1 X24.384 Y89.747 E713.74039
G1 X25.842 Y88.990 E713.78931
G1 X26.925 Y87.948 E713.83408
G1 X27.297 Y87.347 E713.85513
G1 X27.448 Y86.917 E713.86870
G1 X27.845 Y86.274 E713.89121
G1 X27.899 Y86.191 E713.89416
G1 X28.384 Y85.727 E713.91415
G1 X28.546 Y84.857 E713.94050
G1 X28.496 Y84.787 E713.94307
G1 X28.717 Y84.598 E713.95173
G1 X29.464 Y84.140 E713.97782
G1 X29.662 Y84.017 E713.98477
G1 X30.831 Y82.794 E714.03515
G1 X31.501 Y82.380 E714.05861
G1 X31.650 Y82.287 E714.06384
G1 X33.030 Y81.174 E714.11665
G1 X33.218 Y81.103 E714.12263
G1 X33.463 Y81.072 E714.12999
G1 X34.465 Y80.311 E714.16746
G1 X35.085 Y80.040 E714.18761
G1 X35.360 Y79.790 E714.19868
G1 X35.610 Y79.666 E714.20699
G1 X36.920 Y79.407 E714.24677
G1 X37.878 Y78.756 E714.28126
G1 X39.508 Y78.406 E714.33092
G1 X40.431 Y77.969 E714.36133
G1 X40.454 Y77.958 E714.36209
G1 X41.033 Y77.867 E714.37955
G1 X43.261 Y77.710 E714.44607
G1 X44.758 Y77.452 E714.49131
G1 X46.266 Y77.393 E714.53626
G1 X46.720 Y76.825 E714.55792
G1 X46.880 Y76.733 E714.56341
G1 X47.029 Y76.733 E714.56785
G1 X47.049 Y77.107 E714.57901
G1 X48.002 Y77.575 E714.61063
G1 X48.359 Y77.621 E714.62135
G1 X48.976 Y77.584 E714.63976
G1 X49.876 Y77.797 E714.66730
G1 X53.123 Y78.342 E714.76536
G1 X54.558 Y78.675 E714.80924
G1 X57.129 Y79.381 E714.88864
G1 X57.708 Y79.011 E714.90911
G1 X57.870 Y78.985 E714.91400
G1 X58.224 Y79.028 E714.92462
G1 X59.395 Y79.419 E714.96139
G1 X59.351 Y79.674 E714.96909
G1 X59.810 Y80.059 E714.98694
G1 X61.596 Y80.968 E715.04662
G1 X62.272 Y80.959 E715.06676
G1 X62.615 Y80.755 E715.07864
G1 X62.736 Y80.775 E715.08230
G1 X63.883 Y81.318 E715.12009
G1 X65.355 Y81.606 E715.16476
G1 X65.871 Y81.765 E715.18085
G1 X66.649 Y82.149 E715.20669
G1 X68.233 Y82.684 E715.25648
G1 X68.356 Y82.742 E715.26053
G1 X68.608 Y83.019 E715.27168
G1 X69.555 Y83.356 E715.30162
G1 X70.366 Y83.839 E715.32974
G1 X70.748 Y83.948 E715.34157
G1 X70.916 Y84.045 E715.34734
G1 X71.820 Y85.017 E715.38688
G1 X73.492 Y85.653 E715.44016
G1 X73.746 Y85.336 E715.45226
G1 X74.174 Y85.591 E715.46709
G1 X74.209 Y85.613 E715.46833
G1 X74.873 Y86.198 E715.49468
G1 X75.765 Y87.669 E715.54592
G1 X77.003 Y89.410 E715.60955
G1 X77.673 Y90.583 E715.64978
G1 X77.689 Y90.965 E715.66117
G1 X77.863 Y91.459 E715.67676
G1 X77.049 Y91.724 E715.70226
G1 X77.434 Y93.276 E715.74989
G1 X77.985 Y94.261 E715.78350
G1 X78.712 Y94.023 E715.80628
G1 X79.076 Y94.584 E715.82620
G1 X79.812 Y94.886 E715.84990
G1 X79.846 Y95.844 E715.87845
G1 X80.449 Y96.799 E715.91208
G1 X80.473 Y96.839 E715.91347
G1 X80.637 Y97.336 E715.92906
G1 X81.219 Y99.465 E715.99480
G1 X81.344 Y100.687 E716.03138
G1 X81.446 Y102.944 E716.09867
G1 X81.712 Y103.545 E716.11825
G1 X81.804 Y104.555 E716.14845
G1 X81.831 Y104.827 E716.15659
G1 X82.054 Y105.390 E716.17463
G1 X82.084 Y107.314 E716.23194
G1 X82.750 Y109.012 E716.28626
G1 X83.002 Y109.506 E716.30278
G1 X83.005 Y109.533 E716.30359
G1 X82.957 Y109.652 E716.30741
G1 X82.976 Y110.338 E716.32785
G1 X83.268 Y110.897 E716.34663
G1 X83.398 Y112.226 E716.38640
G1 X83.443 Y112.414 E716.39216
G1 X83.443 Y113.991 E716.43913
G1 X82.405 Y116.937 E716.53216
G1 X81.996 Y118.751 E716.58754
G1 X81.874 Y119.262 E716.60319
G1 X81.403 Y121.121 E716.66030
G1 X81.252 Y121.564 E716.67424
G1 X80.867 Y122.331 E716.69980
G1 X80.768 Y123.014 E716.72036
G1 X81.066 Y124.394 E716.76241
G1 X81.392 Y126.484 E716.82541
G1 X81.589 Y128.530 E716.88663
G1 X81.597 Y130.863 E716.95611
G1 X81.599 Y131.176 E716.96543
G1 X81.462 Y132.770 E717.01308
G1 X81.159 Y134.751 E717.07277
G1 X80.754 Y136.489 E717.12592
G1 X80.337 Y137.799 E717.16687
G1 X79.689 Y139.478 E717.22047
G1 X79.071 Y140.758 E717.26280
G1 X78.995 Y140.915 E717.26800
G1 X78.446 Y141.837 E717.29996
G1 X77.810 Y142.707 E717.33205
G1 X77.066 Y143.514 E717.36474
G1 X76.294 Y144.162 E717.39476
G1 X76.252 Y144.198 E717.39641
G1 X75.875 Y144.375 E717.40881
G1 X74.975 Y144.501 E717.43588
G1 X74.919 Y144.509 E717.43757
G1 X72.753 Y144.284 E717.50242
G1 X72.317 Y144.137 E717.51613
G1 X71.322 Y143.964 E717.54621
G1 X67.953 Y142.427 E717.65650
G1 X65.974 Y141.345 E717.72367
G1 X63.971 Y140.056 E717.79461
G1 X61.700 Y138.311 E717.87991
G1 X61.082 Y138.049 E717.89990
G1 X60.884 Y137.964 E717.90632
G1 X60.194 Y137.932 E717.92689
G1 X59.032 Y138.218 E717.96254
G1 X59.791 Y139.490 E718.00665
G1 X60.036 Y140.295 E718.03171
G1 X60.067 Y141.149 E718.05716
G1 X59.873 Y141.986 E718.08275
G1 X59.486 Y142.743 E718.10808
G1 X58.905 Y143.378 E718.13371
G1 X57.962 Y143.986 E718.16713
G1 X56.985 Y144.288 E718.19758
G1 X55.949 Y144.302 E718.22844
G1 X54.835 Y144.020 E718.26267
G1 X54.181 Y143.667 E718.28480
G1 X53.609 Y143.188 E718.30702
G1 X53.150 Y142.609 E718.32903
G1 X52.821 Y141.935 E718.35137
G1 X52.687 Y141.362 E718.36889
G1 X52.658 Y141.243 E718.37254
G1 X52.650 Y140.512 E718.39431
G1 X52.751 Y139.886 E718.41320
G1 X51.886 Y139.363 E718.44330
G1 X49.546 Y141.111 E718.53030
G1 X47.445 Y142.377 E718.60335
G1 X44.849 Y143.603 E718.68886
G1 X42.110 Y144.572 E718.77539
G1 X40.580 Y144.990 E718.82263
G1 X39.997 Y145.124 E718.84045
G1 X37.359 Y145.657 E718.92060
G1 X37.097 Y145.733 E718.92873
G1 X36.898 Y145.733 E718.93465
G1 X35.975 Y145.408 E718.96380
G1 X35.437 Y144.985 E718.98418
G0 F10500 X51.892 Y139.465
G0 X52.658 Y139.929
G0 X53.259 Y141.462
G1 F1740 X53.465 Y142.084 E719.00370
G1 X54.151 Y143.022 E719.03831
G1 X55.166 Y143.658 E719.07398
G1 X56.362 Y143.887 E719.11025
G1 X57.478 Y143.683 E719.14404
G1 X58.485 Y143.099 E719.17871
G1 X59.209 Y142.176 E719.21365
G1 X59.440 Y141.532 E719.23402
G1 X59.525 Y140.823 E719.25529
G1 X59.292 Y139.654 E719.29079
G1 X58.607 Y138.673 E719.32643
G1 X58.201 Y138.412 E719.34080
G1 X57.897 Y138.426 E719.34987
G1 X56.520 Y138.648 E719.39141
G1 X55.342 Y138.727 E719.42657
G1 X53.948 Y138.892 E719.46838
G1 X53.406 Y139.701 E719.49738
G1 X53.192 Y140.803 E719.53082
G1 X53.259 Y141.462 E719.55055
G0 F10500 X53.751 Y141.357
;TYPE:WALL-OUTER
G1 F1500 X53.915 Y141.853 E719.56611
G1 X54.498 Y142.649 E719.59549
G1 X55.352 Y143.185 E719.62552
G1 X56.364 Y143.378 E719.65621
G1 X57.303 Y143.207 E719.68463
G1 X58.151 Y142.715 E719.71383
G1 X58.766 Y141.931 E719.74351
G1 X58.950 Y141.417 E719.75977
G1 X59.019 Y140.842 E719.77702
G1 X58.822 Y139.855 E719.80699
G1 X58.254 Y139.040 E719.83658
G1 X58.064 Y138.919 E719.84329
G1 X57.948 Y138.924 E719.84675
G1 X56.568 Y139.146 E719.88838
G1 X55.388 Y139.225 E719.92360
G1 X54.235 Y139.361 E719.95818
G1 X53.877 Y139.896 E719.97735
G1 X53.697 Y140.826 E720.00556
G1 X53.751 Y141.357 E720.02146
G0 F10500 X53.418 Y141.465
G0 X52.539 Y141.388
G0 X52.200 Y141.477
G1 F1500 X52.159 Y141.304 E720.02675
G1 X52.149 Y140.478 E720.05136
G1 X52.204 Y140.139 E720.06159
G1 X51.915 Y139.965 E720.07163
G1 X49.829 Y141.524 E720.14919
G1 X47.682 Y142.818 E720.22386
G1 X45.039 Y144.066 E720.31091
G1 X42.259 Y145.049 E720.39873
G1 X40.702 Y145.475 E720.44681
G1 X40.094 Y145.614 E720.46538
G1 X37.478 Y146.143 E720.54487
G1 X37.179 Y146.230 E720.55415
G1 X36.814 Y146.233 E720.56502
G1 X35.730 Y145.851 E720.59925
G1 X35.080 Y145.341 E720.62386
G1 X34.616 Y144.750 E720.64623
G1 X33.308 Y142.556 E720.72231
G1 X32.241 Y140.246 E720.79810
G1 X30.781 Y136.010 E720.93154
G1 X30.342 Y135.226 E720.95830
G1 X29.869 Y134.611 E720.98141
G1 X29.788 Y134.508 E720.98531
G1 X29.122 Y133.882 E721.01254
G1 X28.362 Y133.354 E721.04010
G1 X27.223 Y132.807 E721.07773
G1 X26.606 Y132.532 E721.09785
G1 X25.431 Y132.046 E721.13572
G1 X24.919 Y131.725 E721.15372
G1 X24.366 Y131.151 E721.17746
G1 X24.052 Y130.438 E721.20066
G1 X24.003 Y130.211 E721.20758
G1 X23.757 Y129.967 E721.21790
G1 X23.191 Y129.939 E721.23477
G1 X22.911 Y129.857 E721.24346
G1 X22.722 Y129.663 E721.25153
G1 X22.181 Y128.654 E721.28563
G1 X21.825 Y128.172 E721.30348
G1 X21.756 Y128.081 E721.30688
G1 X20.641 Y127.132 E721.35049
G1 X20.350 Y126.757 E721.36462
G1 X19.939 Y125.781 E721.39616
G1 X19.556 Y123.397 E721.46808
G1 X19.590 Y121.440 E721.52637
G1 X19.427 Y121.072 E721.53836
G1 X18.473 Y119.993 E721.58126
G1 X18.166 Y119.528 E721.59785
G1 X18.019 Y118.998 E721.61423
G1 X18.010 Y118.969 E721.61514
G1 X18.106 Y118.402 E721.63226
G1 X18.113 Y118.355 E721.63368
G1 X18.455 Y117.727 E721.65498
G1 X18.002 Y116.745 E721.68719
G1 X17.774 Y115.889 E721.71357
G1 X17.774 Y115.408 E721.72790
G1 X17.907 Y114.884 E721.74400
G1 X17.936 Y114.386 E721.75885
G1 X17.822 Y113.506 E721.78528
G1 X17.806 Y113.392 E721.78871
G1 X17.757 Y112.185 E721.82469
G1 X17.515 Y111.107 E721.85759
G1 X17.076 Y110.417 E721.88195
G1 X17.033 Y110.219 E721.88799
G1 X17.086 Y109.353 E721.91383
G1 X16.923 Y108.782 E721.93151
G1 X16.712 Y107.785 E721.96186
G1 X16.503 Y107.361 E721.97594
G1 X16.489 Y107.352 E721.97644
G1 X16.532 Y107.304 E721.97836
G1 X17.103 Y106.290 E722.01302
G1 X17.114 Y106.058 E722.01994
G1 X16.838 Y105.192 E722.04701
G1 X16.752 Y104.586 E722.06524
G1 X17.057 Y103.315 E722.10417
G1 X17.050 Y102.741 E722.12126
G1 X16.934 Y102.158 E722.13897
G1 X16.936 Y101.866 E722.14766
G1 X17.375 Y99.292 E722.22543
G1 X17.629 Y99.278 E722.23301
G1 X18.056 Y97.462 E722.28857
G1 X18.408 Y96.636 E722.31531
G1 X18.592 Y96.380 E722.32470
G1 X20.377 Y94.798 E722.39574
G1 X20.773 Y93.800 E722.42772
G1 X20.817 Y93.691 E722.43122
G1 X21.119 Y93.280 E722.44641
G1 X21.444 Y92.979 E722.45960
G1 X21.724 Y92.556 E722.47471
G1 X21.997 Y91.697 E722.50156
G1 X22.461 Y90.779 E722.53219
G1 X23.279 Y89.888 E722.56822
G1 X23.677 Y89.706 E722.58125
G1 X24.102 Y89.330 E722.59815
G1 X25.547 Y88.579 E722.64665
G1 X26.533 Y87.631 E722.68739
G1 X26.843 Y87.130 E722.70494
G1 X26.993 Y86.702 E722.71845
G1 X27.426 Y86.001 E722.74299
G1 X27.511 Y85.869 E722.74766
G1 X27.922 Y85.477 E722.76458
G1 X28.015 Y84.976 E722.77975
G1 X27.857 Y84.757 E722.78780
G1 X28.070 Y84.493 E722.79790
G1 X28.420 Y84.194 E722.81161
G1 X29.201 Y83.715 E722.83890
G1 X29.345 Y83.626 E722.84394
G1 X30.516 Y82.401 E722.89441
G1 X31.237 Y81.955 E722.91966
G1 X31.359 Y81.879 E722.92394
G1 X32.777 Y80.736 E722.97819
G1 X33.096 Y80.614 E722.98836
G1 X33.268 Y80.593 E722.99352
G1 X34.211 Y79.876 E723.02880
G1 X34.809 Y79.616 E723.04822
G1 X35.074 Y79.374 E723.05891
G1 X35.450 Y79.187 E723.07142
G1 X36.723 Y78.936 E723.11006
G1 X37.680 Y78.286 E723.14452
G1 X39.347 Y77.929 E723.19529
G1 X40.307 Y77.474 E723.22693
G1 X40.978 Y77.369 E723.24716
G1 X43.201 Y77.213 E723.31353
G1 X44.699 Y76.955 E723.35881
G1 X46.018 Y76.902 E723.39812
G1 X46.388 Y76.439 E723.41577
G1 X46.747 Y76.233 E723.42810
G1 X47.192 Y76.233 E723.44135
G1 X47.458 Y76.345 E723.44995
G1 X47.512 Y76.390 E723.45204
G1 X47.533 Y76.788 E723.46391
G1 X48.148 Y77.090 E723.48432
G1 X48.376 Y77.119 E723.49117
G1 X48.973 Y77.083 E723.50898
G1 X49.019 Y77.080 E723.51035
G1 X49.975 Y77.306 E723.53961
G1 X53.221 Y77.852 E723.63764
G1 X54.677 Y78.189 E723.68216
G1 X57.047 Y78.840 E723.75536
G1 X57.528 Y78.533 E723.77235
G1 X57.865 Y78.480 E723.78251
G1 X58.331 Y78.537 E723.79649
G1 X59.582 Y78.955 E723.83578
G1 X59.856 Y79.067 E723.84459
G1 X59.945 Y79.177 E723.84881
G1 X59.893 Y79.476 E723.85785
G1 X60.087 Y79.639 E723.86539
G1 X61.713 Y80.467 E723.91974
G1 X62.131 Y80.461 E723.93219
G1 X62.347 Y80.332 E723.93968
G1 X62.367 Y80.204 E723.94354
G1 X62.890 Y80.295 E723.95935
G1 X64.040 Y80.839 E723.99724
G1 X65.475 Y81.120 E724.04079
G1 X66.058 Y81.300 E724.05897
G1 X66.840 Y81.686 E724.08494
G1 X68.416 Y82.217 E724.13447
G1 X68.660 Y82.334 E724.14253
G1 X68.893 Y82.590 E724.15284
G1 X69.768 Y82.901 E724.18050
G1 X70.565 Y83.376 E724.20813
G1 X70.944 Y83.483 E724.21986
G1 X71.232 Y83.650 E724.22977
